!!!COM: Beethoven, Ludwig van
!!!CDT: 1770///-1827///
!!!ODT: 1798///-1800///
!!!OTL: String Quartet No. 6 in B-flat Major, Op. 18, No. 6
!!!OPS: Op. 18
!!!ONM: No. 6
!!!OMV: Mvmt. 1
!!!OMD: Allegro con brio
!!!PDT: 1801///
!!!PPP: Vienna
!!!PPR: C. Haslinger qm Tobias
!!!ODE: Dem F&uuml;rsten von Lobkowitz gewidmet
!!!MPD: 1798///-1800///
**kern	**dynam	**kern	**dynam	**kern	**dynam	**kern	**dynam
*staff4	*staff4	*staff3	*staff3	*staff2	*staff2	*staff1	*staff1
*Icello	*Icello	*Iviola	*Iviola	*Ivioln	*Ivioln	*Ivioln	*Ivioln
*clefF4	*clefF4	*clefC3	*clefC3	*clefG2	*clefG2	*clefG2	*clefG2
*>[A,A1,A,A2,B,B1,B,B2]	*>[A,A1,A,A2,B,B1,B,B2]	*>[A,A1,A,A2,B,B1,B,B2]	*>[A,A1,A,A2,B,B1,B,B2]	*>[A,A1,A,A2,B,B1,B,B2]	*>[A,A1,A,A2,B,B1,B,B2]	*>[A,A1,A,A2,B,B1,B,B2]	*>[A,A1,A,A2,B,B1,B,B2]
*>norep[A,A2,B,B2]	*>norep[A,A2,B,B2]	*>norep[A,A2,B,B2]	*>norep[A,A2,B,B2]	*>norep[A,A2,B,B2]	*>norep[A,A2,B,B2]	*>norep[A,A2,B,B2]	*>norep[A,A2,B,B2]
*>A	*>A	*>A	*>A	*>A	*>A	*>A	*>A
*k[b-e-]	*k[b-e-]	*k[b-e-]	*k[b-e-]	*k[b-e-]	*k[b-e-]	*k[b-e-]	*k[b-e-]
*B-:	*B-:	*B-:	*B-:	*B-:	*B-:	*B-:	*B-:
*met(C|)	*met(C|)	*met(C|)	*met(C|)	*met(C|)	*met(C|)	*met(C|)	*met(C|)
*M4/4	*M4/4	*M4/4	*M4/4	*M4/4	*M4/4	*M4/4	*M4/4
*MM184	*MM184	*MM184	*MM184	*MM184	*MM184	*MM184	*MM184
=1-	=1-	=1-	=1-	=1-	=1-	=1-	=1-
4BB-/	.	4B-/	.	8B-/L	.	2.B-/	.
.	.	.	.	8f/	.	.	.
4r	.	4B-/	.	8d/	.	.	.
.	.	.	.	8f/J	.	.	.
2r	.	4B-/	.	8d/L	.	.	.
.	.	.	.	8f/	.	.	.
.	.	.	.	.	.	(gq\	.
.	.	4B-/	.	8d/	.	8f/L	.
.	.	.	.	8f/J	.	16en/L	.
.	.	.	.	.	.	16f/JJ)	.
=2	=2	=2	=2	=2	=2	=2	=2
1r	.	4B-/	.	8d/L	.	4d/	.
.	.	.	.	8f/	.	.	.
.	.	4B-/	.	8d/	.	4b-\	.
.	.	.	.	8f/J	.	.	.
.	.	4B-/	.	8d/L	.	4f/	.
.	.	.	.	8f/	.	.	.
.	.	4B-/	.	8d/	.	4dd\	.
.	.	.	.	8f/J	.	.	.
=3	=3	=3	=3	=3	=3	=3	=3
1r	.	4B-/	.	8d/L	.	2.b-\	.
.	.	.	.	8f/	.	.	.
.	.	4B-/	.	8d/	.	.	.
.	.	.	.	8f/J	.	.	.
.	.	4B-/	.	8d/L	.	.	.
.	.	.	.	8f/	.	.	.
.	.	.	.	.	.	(ggq\	.
.	.	4B-/	.	8d/	.	8ff\L	.
.	.	.	.	8f/J	.	16een\L	.
.	.	.	.	.	.	16ff\JJ)	.
=4	=4	=4	=4	=4	=4	=4	=4
1r	.	4B-/	.	8d/L	.	4dd\	.
.	.	.	.	8f/	.	.	.
.	.	4B-/	.	8d/	.	4bb-\	.
.	.	.	.	8f/J	.	.	.
.	.	4B-/	.	8d/L	.	4ff\	.
.	.	.	.	8f/	.	.	.
.	.	4B-/	.	8d/	.	4ddd\	.
.	.	.	.	8f/J	.	.	.
=5	=5	=5	=5	=5	=5	=5	=5
2r	.	4B-/	.	8d/L	.	2.bb-\	.
.	.	.	.	8f/	.	.	.
.	.	4B-/	.	8d/	.	.	.
.	.	.	.	8f/J	.	.	.
4r	.	4B-/	.	8d/L	.	.	.
.	.	.	.	8f/	.	.	.
Cq\	.	.	.	.	.	.	.
8BB-/L	.	4B-/	.	8d/	.	4r	.
16AA/L	.	.	.	8f/J	.	.	.
16BB-/JJ)	.	.	.	.	.	.	.
=6	=6	=6	=6	=6	=6	=6	=6
4C/	.	4A/	.	8e-/L	.	1r	.
.	.	.	.	8f/	.	.	.
4FF/	.	4A/	.	8e-/	.	.	.
.	.	.	.	8f/J	.	.	.
4C/	.	4A/	.	8e-/L	.	.	.
.	.	.	.	8f/	.	.	.
4FF/	.	4A/	.	8e-/	.	.	.
.	.	.	.	8f/J	.	.	.
=7	=7	=7	=7	=7	=7	=7	=7
(2D\	.	4B-/	.	8d/L	.	2r	.
.	.	.	.	8f/	.	.	.
.	.	4B-/	.	8d/	.	.	.
.	.	.	.	8f/J	.	.	.
4BB-/)	.	4B-/	.	8d/L	.	4r	.
.	.	.	.	8f/	.	.	.
.	.	.	.	.	.	(cccq\	.
4r	.	4B-/	.	8d/	.	8bb-\L	.
.	.	.	.	8f/J	.	16aa\L	.
.	.	.	.	.	.	16bb-\JJ)	.
=8	=8	=8	=8	=8	=8	=8	=8
1r	.	4A/	.	8e-/L	.	4ccc\	.
.	.	.	.	8f/	.	.	.
.	.	4A/	.	8e-/	.	4ff\	.
.	.	.	.	8f/J	.	.	.
.	.	4A/	.	8e-/L	.	4ccc\	.
.	.	.	.	8f/	.	.	.
.	.	4A/	.	8e-/	.	4ff\	.
.	.	.	.	8f/J	.	.	.
=9	=9	=9	=9	=9	=9	=9	=9
2r	.	4B-/	.	8d/L	.	(2ddd\	.
.	.	.	.	8f/	.	.	.
.	.	4B-/	.	8d/	.	.	.
.	.	.	.	8f/J	.	.	.
4r	.	4B-/	.	8d/L	.	4bb-\)	.
.	.	.	.	8f/	.	.	.
(Cq\	.	.	.	.	.	.	.
8BB-/L	.	4B-/	.	8d/	.	4r	.
16AA/L	.	.	.	8f/J	.	.	.
16BB-/JJ)	.	.	.	.	.	.	.
=10	=10	=10	=10	=10	=10	=10	=10
4C/	.	4A/	.	8e-/L	.	1r	.
.	.	.	.	8f/	.	.	.
4FF/	.	4A/	.	8e-/	.	.	.
.	.	.	.	8f/J	.	.	.
4C/	.	4A/	.	8e-/L	.	.	.
.	.	.	.	8f/	.	.	.
4FF/	.	4A/	.	8e-/	.	.	.
.	.	.	.	8f/J	.	.	.
=11	=11	=11	=11	=11	=11	=11	=11
(2D\	.	4B-/	.	8d/L	.	1r	.
.	.	.	.	8f/	.	.	.
.	.	4B-/	.	8d/	.	.	.
.	.	.	.	8f/J	.	.	.
2BB-/	.	4f\	.	8d/L	.	.	.
.	.	.	.	8b-/	.	.	.
.	.	4f\	.	8d/	.	.	.
.	.	.	.	8b-/J	.	.	.
=12	=12	=12	=12	=12	=12	=12	=12
2GG/	.	4g\	.	8d/L	.	1r	.
.	.	.	.	8b-/	.	.	.
.	.	4g\	.	8d/	.	.	.
.	.	.	.	8b-/J	.	.	.
2C/)	.	4G/	.	8g/L	.	.	.
.	.	.	.	8b-/	.	.	.
.	.	4G/	.	8g/	.	.	.
.	.	.	.	8b-/J	.	.	.
=13	=13	=13	=13	=13	=13	=13	=13
4FF/	.	4F/	.	8a\L	.	2r	.
.	.	.	.	8cc\	.	.	.
4r	.	4f\	.	8a\	.	.	.
.	.	.	.	8cc\J	.	.	.
2r	.	4en\	.	8b-\L	.	4r	.
.	.	.	.	8cc\	.	.	.
.	.	.	.	.	.	(dddq\	.
.	.	4e\	.	8b-\	.	8ccc\L	.
.	.	.	.	8cc\J	.	16bbn\L	.
.	.	.	.	.	.	16ccc\JJ)	.
=14	=14	=14	=14	=14	=14	=14	=14
2r	.	4f\	.	8a\L	.	4fff\	.
.	.	.	.	8cc\	.	.	.
.	.	4f\	.	8a\	.	4r	.
.	.	.	.	8cc\J	.	.	.
4r	.	4en\	.	8g/L	.	2r	.
.	.	.	.	8cc/	.	.	.
(Dq\	.	.	.	.	.	.	.
8C/L	.	4e\	.	8g/	.	.	.
16BBn/L	.	.	.	8cc/J	.	.	.
16C/JJ)	.	.	.	.	.	.	.
=15	=15	=15	=15	=15	=15	=15	=15
4FF/	.	4f\	.	8a\L	.	2r	.
.	.	.	.	8cc\	.	.	.
4r	.	4f\	.	8a\	.	.	.
.	.	.	.	8cc\J	.	.	.
2r	.	4en\	.	8b-\L	.	4r	.
.	.	.	.	8cc\	.	.	.
.	.	.	.	.	.	(dddq\	.
.	.	4e\	.	8b-\	.	8ccc\L	.
.	.	.	.	8cc\J	.	16bbn\L	.
.	.	.	.	.	.	16ccc\JJ)	.
=16	=16	=16	=16	=16	=16	=16	=16
2r	.	4f\	.	8a\L	.	4fff\	.
.	.	.	.	8cc\	.	.	.
.	.	4f\	.	8a\	.	4r	.
.	.	.	.	8cc\J	.	.	.
4r	.	4en\	.	8g/L	.	2r	.
.	.	.	.	8cc/	.	.	.
(Dq\	.	.	.	.	.	.	.
8C/L	.	4e\	.	8g/	.	.	.
16BBn/L	.	.	.	8cc/J	.	.	.
16C/JJ)	.	.	.	.	.	.	.
=17	=17	=17	=17	=17	=17	=17	=17
4FF/	.	4f\	.	8a/L	.	1r	.
.	.	.	.	8cc/	<	.	.
(Dq\	.	.	.	.	.	.	.
8C/L	<	4en\	<	8g/	.	.	.
16BBn/L	.	.	.	8cc/J	.	.	.
16C/JJ	.	.	.	.	.	.	.
4FF/	.	4f\	.	8a/L	.	.	.
.	.	.	.	8cc/	.	.	.
Dq\	.	.	.	.	.	.	.
8C/L	.	4e\	.	8g/	.	.	.
16BB/L	.	.	.	8cc/J	.	.	.
16C/JJ)	.	.	.	.	.	.	.
=18	=18	=18	=18	=18	=18	=18	=18
8FF/L	.	4f\	.	4a/	.	1r	.
8GG/	.	.	.	.	.	.	.
8AA/	.	4r	.	4r	.	.	.
8BB-/J	.	.	.	.	.	.	.
8C/L	.	2r	.	2r	.	.	.
8D/	.	.	.	.	.	.	.
8E-/	.	.	.	.	.	.	.
8C/J	.	.	.	.	.	.	.
=19	=19	=19	=19	=19	=19	=19	=19
4BB-/	.	8D/L	.	1r	.	2.B-/	.
.	.	8F/	.	.	.	.	.
4BB-/	.	8D/	.	.	.	.	.
.	.	8F/J	.	.	.	.	.
4BB-/	.	8D/L	.	.	.	.	.
.	.	8F/	.	.	.	.	.
.	.	.	.	.	.	(gq\	.
4BB-/	.	8D/	.	.	.	8f/L	.
.	.	8F/J	.	.	.	16en/L	.
.	.	.	.	.	.	16f/JJ)	.
=20	=20	=20	=20	=20	=20	=20	=20
4BB-/	.	8D/L	.	1r	.	4d/	.
.	.	8F/	.	.	.	.	.
4BB-/	.	8D/	.	.	.	4b-\	.
.	.	8F/J	.	.	.	.	.
4BB-/	.	8D/L	.	.	.	4f/	.
.	.	8F/	.	.	.	.	.
4BB-/	.	8D/	.	.	.	4dd\	.
.	.	8F/J	.	.	.	.	.
=21	=21	=21	=21	=21	=21	=21	=21
4BB-/	.	8D/L	.	2.B-/	.	2.b-\	.
.	.	8F/	.	.	.	.	.
4BB-/	.	8D/	.	.	.	.	.
.	.	8F/J	.	.	.	.	.
4BB-/	.	8D/L	.	.	.	.	.
.	.	8F/	.	.	.	.	.
.	.	.	.	(gq\	.	(ggq\	.
4BB-/	.	8D/	.	8f/L	.	8ff\L	.
.	.	8F/J	.	16en/L	.	16een\L	.
.	.	.	.	16f/JJ)	.	16ff\JJ)	.
=22	=22	=22	=22	=22	=22	=22	=22
4BB-/	.	8D/L	.	4d/	.	4dd\	.
.	.	8F/	.	.	.	.	.
4BB-/	.	8D/	.	4b-\	.	4bb-\	.
.	.	8F/J	.	.	.	.	.
4BB-/	.	8D/L	.	4f/	.	4ff\	.
.	.	8F/	.	.	.	.	.
4BB-/	.	8D/	.	4dd\	.	4ddd\	.
.	.	8F/J	.	.	.	.	.
=23	=23	=23	=23	=23	=23	=23	=23
4BB-/	.	8D/L	.	2b-\	.	2bb-\	.
.	.	8F/	.	.	.	.	.
4BB-/	.	8D/	.	.	.	.	.
.	.	8F/J	.	.	.	.	.
4BB-/	.	8D/L	.	4r	.	2r	.
.	.	8F/	.	.	.	.	.
.	.	.	.	(ccq\	.	.	.
4BB-/	.	8D/	.	8b-/L	.	.	.
.	.	8F/J	.	16a/L	.	.	.
.	.	.	.	16b-/JJ)	.	.	.
=24	=24	=24	=24	=24	=24	=24	=24
4AA/	.	8E-/L	.	4cc\	.	1r	.
.	.	8F/	.	.	.	.	.
4AA/	.	8E-/	.	4f/	.	.	.
.	.	8F/J	.	.	.	.	.
4AA/	.	8E-/L	.	4cc\	.	.	.
.	.	8F/	.	.	.	.	.
4AA/	.	8E-/	.	4f/	.	.	.
.	.	8F/J	.	.	.	.	.
=25	=25	=25	=25	=25	=25	=25	=25
4BB-/	.	8D/L	.	(2dd\	.	2r	.
.	.	8F/	.	.	.	.	.
4BB-/	.	8D/	.	.	.	.	.
.	.	8F/J	.	.	.	.	.
4BB-/	.	8D/L	.	4b-\)	.	4r	.
.	.	8F/	.	.	.	.	.
.	.	.	.	.	.	(cccq\	.
4BB-/	.	8D/	.	4r	.	8bb-\L	.
.	.	8F/J	.	.	.	16aa\L	.
.	.	.	.	.	.	16bb-\JJ)	.
=26	=26	=26	=26	=26	=26	=26	=26
4AA/	.	8E-/L	.	1r	.	4ccc\	.
.	.	8F/	.	.	.	.	.
4AA/	.	8E-/	.	.	.	4ff\	.
.	.	8F/J	.	.	.	.	.
4AA/	.	8E-/L	.	.	.	4ccc\	.
.	.	8F/	.	.	.	.	.
4AA/	.	8E-/	.	.	.	4ff\	.
.	.	8F/J	.	.	.	.	.
=27	=27	=27	=27	=27	=27	=27	=27
4BB-/	.	8D/L	.	2r	.	(2ddd\	.
.	.	8F/	.	.	.	.	.
4BB-/	.	8D/	.	.	.	.	.
.	.	8F/J	.	.	.	.	.
4BB-/	.	8D/L	.	4r	.	4bb-\)	.
.	.	8F/	.	.	.	.	.
.	.	.	.	(ccq\	.	.	.
4BB-/	.	8D/	.	8b-/L	.	4r	.
.	.	8F/J	.	16a/L	.	.	.
.	.	.	.	16b-/JJ)	.	.	.
=28	=28	=28	=28	=28	=28	=28	=28
4AA/	.	8E-/L	.	4cc\	.	1r	.
.	.	8F/	.	.	.	.	.
4AA/	.	8E-/	.	4f/	.	.	.
.	.	8F/J	.	.	.	.	.
4AA/	.	8E-/L	.	4cc\	.	.	.
.	.	8F/	.	.	.	.	.
4AA/	.	8E-/	.	4f/	.	.	.
.	.	8F/J	.	.	.	.	.
=29	=29	=29	=29	=29	=29	=29	=29
4BB-/	.	4D/	.	(2dd\	.	1r	.
4r	.	4r	.	.	.	.	.
(2d\	.	2r	.	2b-\	<	.	.
=30	=30	=30	=30	=30	=30	=30	=30
2B-\	<	(2d\	.	2g/	.	2r	.
2G\	.	2B-/	<	2en/)	.	[2bb-\	.
=31	=31	=31	=31	=31	=31	=31	=31
2En\	.	2G/	.	(2c#/	.	2bb-\]	<
2F\	.	[2A/)	.	2d/	.	(4.aa\	.
.	.	.	.	.	.	8gg\)	.
=32	=32	=32	=32	=32	=32	=32	=32
2D\	.	4A/]	.	2.f/	.	(8ff\L	.
.	.	.	.	.	.	8een\	.
.	.	(4A-/	.	.	.	8dd\	.
.	.	.	.	.	.	8cc\J	.
2G\)	.	4G/	.	.	.	8bn\L	.
.	.	.	.	.	.	8ff\	.
.	.	4F/)	.	4d/)	.	8dd\	.
.	.	.	.	.	.	8b\J)	.
=33	=33	=33	=33	=33	=33	=33	=33
4C/	.	4En/	.	4en/	.	4cc\	.
2c\	.	2en\	.	2g/	.	2cc\	.
4c\	.	4e\	.	4g/	.	(8dd\L	.
.	.	.	.	.	.	8cc\J)	.
=34	=34	=34	=34	=34	=34	=34	=34
4C/	.	4f\	.	4g/	.	8bn\L	.
.	.	.	.	.	.	8cc\	.
2c\	.	2f\	.	2g/	.	8dd\	.
.	.	.	.	.	.	8een\J	.
.	.	.	.	.	.	8ff\L	.
.	.	.	.	.	.	8gg\	.
4c\	.	4f\	.	4g/	.	8aa\	.
.	.	.	.	.	.	8bbn\J	.
=35	=35	=35	=35	=35	=35	=35	=35
4C/	.	4en\	.	4g/	.	8ccc\L	.
.	.	.	.	.	.	8ddd\	.
4c\	.	2cc\	.	2een\	.	8eeen\	.
.	.	.	.	.	.	8fff\J	.
4C/	.	.	.	.	.	4ggg\	.
4c\	.	(8bn\L	.	(8dd\L	.	4ggg\	.
.	.	8cc\J)	.	8ee\J)	.	.	.
=36	=36	=36	=36	=36	=36	=36	=36
4C/	.	8dd\L	.	8ff\L	.	4ggg\	.
.	.	8cc\	.	8een\	.	.	.
4c\	.	8bn\	.	8dd\	.	4ggg\	.
.	.	8a\J	.	8cc\J	.	.	.
4C/	.	8g\L	.	8bn/L	.	4ggg\	.
.	.	8f\	.	8a/	.	.	.
4c\	.	8en\	.	8g/	.	4ggg\	.
.	.	8d\J	.	8f/J	.	.	.
=37	=37	=37	=37	=37	=37	=37	=37
4C/	.	4c\	.	4en/	.	4eeen\	.
2C/	.	2c\	.	2G/ 2e/	.	2cc\	.
4C/	.	4c\	.	4G/ 4e/	.	8dd\L	.
.	.	.	.	.	.	8cc\J	.
=38	=38	=38	=38	=38	=38	=38	=38
4CC/	.	4d\	.	4G/ 4f/	.	8bn\L	.
.	.	.	.	.	.	8cc\	.
2C/	.	2d\	.	2G/ 2f/	.	8dd\	.
.	.	.	.	.	.	8een\J	.
.	.	.	.	.	.	8ff\L	.
.	.	.	.	.	.	8gg\	.
4C/	.	4d\	.	4G/ 4f/	.	8aa\	.
.	.	.	.	.	.	8bbn\J	.
=39	=39	=39	=39	=39	=39	=39	=39
4CC/	.	4c\	.	4G/ 4en/	.	8ccc\L	.
.	.	.	.	.	.	8ddd\	.
4C/	.	2cc\	.	2een\	.	8eeen\	.
.	.	.	.	.	.	8fff\J	.
4CC/	.	.	.	.	.	4ggg\	.
8C/L	.	(8bn\L	.	(8dd\L	.	4ggg\	.
8C/J	.	8cc\J)	.	8ee\J)	.	.	.
=40	=40	=40	=40	=40	=40	=40	=40
8BBn/L	.	8dd\L	.	8ff\L	.	4ggg\	.
8C/	.	8cc\	.	8een\	.	.	.
8D/	.	8bn\	.	8dd\	.	4ggg\	.
8En/J	.	8a\J	.	8cc\J	.	.	.
8F\L	.	8g\L	.	8bn/L	.	4ggg\	.
8G\	.	8f\	.	8a/	.	.	.
8A\	.	8en\	.	8g/	.	4ggg\	.
8Bn\J	.	8d\J	.	8f/J	.	.	.
=41	=41	=41	=41	=41	=41	=41	=41
4c\	.	4c\	.	4en/	.	(8eeen\L	.
.	.	.	.	.	.	8ccc\)	.
4G\	.	4f\	.	4bn\	.	8ggg\	.
.	.	.	.	.	.	8ggg\J	.
4c\	.	4en\	.	4cc\	.	(8eee\L	.
.	.	.	.	.	.	8ccc\)	.
4G\	.	4f\	.	4b\	.	8ggg\	.
.	.	.	.	.	.	8ggg\J	.
=42	=42	=42	=42	=42	=42	=42	=42
4c\	.	4en\	.	4cc\	.	(8eeen\L	.
.	.	.	.	.	.	8ccc\)	.
4G\	.	4bn\	.	4ff\	.	8ggg\	.
.	.	.	.	.	.	8ggg\J	.
4C/	.	4cc\	.	4een\	.	(8eee\L	.
.	.	.	.	.	.	8ccc\)	.
4GG/	.	4f\ 4dd\	.	4bbn\	.	8ggg\	.
.	.	.	.	.	.	8ggg\J	.
=43	=43	=43	=43	=43	=43	=43	=43
4CC/	.	4en\ 4cc\	.	4ccc\	.	4eeen\	.
4r	.	4r	.	4r	.	4r	.
4C/	.	4c\	.	4cc\	.	4cc\	.
4r	.	4r	.	4r	.	4r	.
=44	=44	=44	=44	=44	=44	=44	=44
4CC/	.	4C/	.	4c/	.	4c/	.
4r	.	4r	.	4r	.	4r	.
2r	.	2r	.	2r	.	4r	.
.	.	.	.	.	.	(4c/	.
=45	=45	=45	=45	=45	=45	=45	=45
4F\	.	4f\	.	4c/	.	4a/)	.
4r	.	4r	.	4r	.	4r	.
4.F\	.	4.f\	.	4.c/	.	4.a/	.
8F\	.	8f\	.	8c/	.	8a/	.
=46	=46	=46	=46	=46	=46	=46	=46
[2F\	.	[2f\	.	[2c/	.	[2a/	.
4.F\]	.	4.f\]	.	4.c/]	.	4.a/]	.
8F\	.	8f\	.	8c/	.	8a/	.
=47	=47	=47	=47	=47	=47	=47	=47
.	.	aq\	.	.	.	ccq\	.
4.En\	.	4.g\	.	4.c/	.	4.b-\	.
8F\	.	8f\	.	8c/	.	8a/	.
.	.	aq\	.	.	.	ccq\	.
4.E\	.	4.g\	.	4.c/	.	4.b-\	.
8F\	.	8f\	.	8c/	.	8a/	.
=48	=48	=48	=48	=48	=48	=48	=48
1C	.	1en	<	(4c/	.	[2g/	<
.	.	.	.	4d-/	.	.	.
.	.	.	.	4c/	>	4.g/]	.
.	.	.	.	4B-/)	.	.	.
.	.	.	.	.	.	(8c/	.
=49	=49	=49	=49	=49	=49	=49	=49
4F\	<	4f\	>	4A-/	.	4cc\)	.
4r	.	4r	.	4r	.	4r	.
2r	.	4.f\	.	4.a-/	.	4.cc\	.
.	.	8f\	.	8a-/	.	8cc\	.
=50	=50	=50	=50	=50	=50	=50	=50
1r	.	[2f\	.	[2a-/	.	[2cc\	.
.	.	4.f\]	.	4.a-/]	.	4.cc\]	.
.	.	8f\	.	8a-/	.	8cc\	.
=51	=51	=51	=51	=51	=51	=51	=51
.	.	a-q\	.	ccq\	.	.	.
1r	.	4.g\	.	4.b-\	.	4.een\	.
.	.	8f\	.	8a-/	.	8ff\	.
.	.	a-q\	.	ccq\	.	.	.
.	.	4.g\	.	4.b-\	.	4.ee\	.
.	.	8f\	.	8a-/	.	8ff\	.
=52	=52	=52	=52	=52	=52	=52	=52
(4c\	<	2.en\	.	2.g/	.	1cc	<
4d-\	.	.	.	.	.	.	.
4c\)	>	.	.	.	.	.	.
4C/	.	4B-/	<	4en/	<	.	.
=53	=53	=53	=53	=53	=53	=53	=53
4F\	.	4A-/	.	4f/	.	4cc\	>
4r	.	4r	.	4r	.	4r	.
4.E-\	.	4.An/	.	4.f/	.	4.cc\	.
8E-\	.	8A/	.	8f/	.	8cc\	.
=54	=54	=54	=54	=54	=54	=54	=54
[2D-\	.	[2B-/	.	[2f/	.	[2ff\	.
4.D-\]	>	4.B-/]	>	4.f/]	>	4.ff\]	>
8d-\	.	8f\	.	8b-\	.	8dd-\	.
=55	=55	=55	=55	=55	=55	=55	=55
4e-\	.	4e-\	.	4a-/	.	4cc\	.
4r	.	4r	.	4r	.	4r	.
4d-\	.	4e-\	.	4g/	.	4b-\	.
4r	.	4r	.	4r	.	4r	.
=56	=56	=56	=56	=56	=56	=56	=56
1c	.	1e-	.	1a-	.	1ee-	.
=57	=57	=57	=57	=57	=57	=57	=57
4D-\	.	4F/	.	4d-/	.	4a-/	.
4r	.	4r	.	4r	.	4r	.
4.D-\	.	4.F/	.	4.d-/	.	4.a-/	.
8D-\	.	8F/	.	8d-/	.	8a-/	.
=58	=58	=58	=58	=58	=58	=58	=58
[2BB-/	.	[2G-/	.	[2d-/	.	[2dd-\	.
4.BB-/]	>	4.G-/]	>	4.d-/]	>	4.dd-\]	>
8B-\	.	8d-\	.	8g-/	.	8b-\	.
=59	=59	=59	=59	=59	=59	=59	=59
4c\	.	4c\	.	4f/	.	4a-/	.
4r	.	4r	.	4r	.	4r	.
4B-\	.	4c\	.	4en/	.	4g/	.
4r	.	4r	.	4r	.	4r	.
=60	=60	=60	=60	=60	=60	=60	=60
[2A-\	.	[2c\	.	[2f/	.	[2cc\	.
4.A-\]	.	4.c\]	.	4.f/]	.	4.cc\]	.
8B-\	.	8d-\	.	8g/	.	8b-\	.
=61	=61	=61	=61	=61	=61	=61	=61
4c\	.	4c\	.	4f/	.	4a-/	.
4r	.	4r	.	4r	.	4r	.
4B-\	.	4c\	.	4en/	.	4g/	.
4r	.	4r	.	4r	.	4r	.
=62	=62	=62	=62	=62	=62	=62	=62
[2A\	.	[2c\	.	[2f/	.	[2cc\	.
4.A\]	.	4.c\]	.	4.f/]	.	4.cc\]	.
8B-\	.	8d\	.	8g/	.	8b-\	.
=63	=63	=63	=63	=63	=63	=63	=63
4c\	.	4c\	.	4f/	.	4a/	.
4r	.	4r	.	4r	.	4aa\	.
4B-\	.	4c\	.	4en/	.	4r	.
4r	.	4r	.	4r	.	4gg\	.
=64	=64	=64	=64	=64	=64	=64	=64
1A	.	1c	.	1f	.	2.ccc\	.
.	.	.	.	.	.	4cc\	.
=65	=65	=65	=65	=65	=65	=65	=65
1En	.	1c	.	1g	.	2.bb-\	.
.	.	.	.	.	.	4b-\	.
=66	=66	=66	=66	=66	=66	=66	=66
2.F\	.	2.c\	.	2.a/	.	2.aa\	.
4D\	.	4d\	.	4f/	.	4a/	.
=67	=67	=67	=67	=67	=67	=67	=67
4BB-/	.	4r	.	4r	.	4gg\	.
4r	.	4B-/	.	4d/	.	4g/	.
4C/	.	4r	.	4r	.	4een\	.
4r	.	4G/	.	4B-/	.	4en/	.
=68	=68	=68	=68	=68	=68	=68	=68
1r	.	4r	.	4r	.	[2ccc\	.
.	.	(4a\	.	(4ff\	.	.	.
.	.	4g#\	.	4een\	.	8ccc\L]	.
.	.	.	.	.	.	8cc\	.
.	.	4a\)	.	4ff\)	.	8cc\	.
.	.	.	.	.	.	8cc\J	.
=69	=69	=69	=69	=69	=69	=69	=69
4r	.	4r	.	4r	.	[2bb-\	.
(4en\	.	2cc\	.	(4g/	.	.	.
4d#\	.	.	.	4f#/	.	8bb-\L]	.
.	.	.	.	.	.	8b-\	.
4e\)	.	4cc\	.	4g/)	.	8b-\	.
.	.	.	.	.	.	8b-\J	.
=70	=70	=70	=70	=70	=70	=70	=70
4r	.	4r	.	4r	.	[2aa\	.
(4F\	.	(4c\	.	(4a/	.	.	.
4En\	.	4c#\	.	4g/	.	8aa\L]	.
.	.	.	.	.	.	8a\	.
4D\)	.	4d\)	.	4f/)	.	8a\	.
.	.	.	.	.	.	8a\J	.
=71	=71	=71	=71	=71	=71	=71	=71
4C#/	.	4A/	.	4en/	.	8gg\L	.
.	.	.	.	.	.	8g\	.
4r	.	4a\	.	4een\	.	8g\	.
.	.	.	.	.	.	8g\J	.
4D\	.	4r	.	4r	.	8ff\L	.
.	.	.	.	.	.	8f\	.
4r	.	4a\	.	4dd\	.	8f\	.
.	.	.	.	.	.	8f\J	.
=72	=72	=72	=72	=72	=72	=72	=72
4AA/	.	4r	.	4r	.	8ee-/L	.
.	.	.	.	.	.	8e-/	.
4r	.	4f\	.	4cc\	.	8e-/	.
.	.	.	.	.	.	8e-/J	.
4BB-/	.	4r	.	4r	.	8dd/L	.
.	.	.	.	.	.	8d/	.
4r	.	4f\	.	4b-\	.	8d/	.
.	.	.	.	.	.	8d/J	.
=73	=73	=73	=73	=73	=73	=73	=73
4FF#/	.	4r	.	4r	.	8cc/L	.
.	.	.	.	.	.	8c/	.
4r	.	4d\	.	4a/	.	8c/	.
.	.	.	.	.	.	8c/J	.
4GG/	.	4r	.	4r	.	8bn/L	.
.	.	.	.	.	.	8Bn/	.
4r	.	4d\	.	4f/	.	8B/	.
.	.	.	.	.	.	8B/J	.
=74	=74	=74	=74	=74	=74	=74	=74
4C#/	.	4G/	.	4en/	.	8B-/L	.
.	.	.	.	.	.	8en/	.
4r	.	4r	.	4r	.	8g/	.
.	.	.	.	.	.	8b-/J	.
2r	.	2r	.	2r	.	8een\L	.
.	.	.	.	.	.	8gg\	.
.	.	.	.	.	.	8bb-\	.
.	.	.	.	.	.	8bb-\J	.
=75	=75	=75	=75	=75	=75	=75	=75
4D\	.	4F/	.	4A/ 4f/	.	8A/L	.
.	.	.	.	.	.	8d/	.
4r	.	4r	.	4r	.	8f/	.
.	.	.	.	.	.	8a/J	.
2r	.	2r	.	2r	.	8dd\L	.
.	.	.	.	.	.	8ff\	.
.	.	.	.	.	.	8aa\	.
.	.	.	.	.	.	8aa\J	.
=76	=76	=76	=76	=76	=76	=76	=76
4BB-/	.	4B-\ 4g\	.	4d/ 4dd/	.	8gg\L	.
.	.	.	.	.	.	8ff#\	.
4r	.	4r	.	4r	.	8gg\	.
.	.	.	.	.	.	8aa\J	.
2r	.	2r	.	2r	.	8bb-\L	.
.	.	.	.	.	.	8bbn\	.
.	.	.	.	.	.	8ccc\	.
.	.	.	.	.	.	8ccc#\J	.
=77	=77	=77	=77	=77	=77	=77	=77
4BBn/	.	4Bn\ 4a-\	.	8d/L	.	1ddd	.
.	.	.	.	8cc#/	.	.	.
4r	.	4r	.	8dd/	.	.	.
.	.	.	.	8een/J	.	.	.
2r	.	2r	.	8ff\L	.	.	.
.	.	.	.	8ff#\	.	.	.
.	.	.	.	8gg\	.	.	.
.	.	.	.	8aa-\J	.	.	.
=78	=78	=78	=78	=78	=78	=78	=78
4C/	.	8C/L	.	[2aa\	.	[2ccc\	.
.	.	8F/	.	.	.	.	.
4r	.	8A/	.	.	.	.	.
.	.	8c/J	.	.	.	.	.
2r	.	8f\L	.	8aa\L]	.	8ccc\L]	.
.	.	8a\	.	(8ccc\	.	(8fff\	.
.	.	8cc\	.	8aa\	.	8ccc\	.
.	.	8cc\J	.	8ff\J)	.	8aa\J)	.
=79	=79	=79	=79	=79	=79	=79	=79
8CC/L	.	1b-	.	1een	.	1gg	.
8EEn/	.	.	.	.	.	.	.
8GG/	.	.	.	.	.	.	.
8C/J	.	.	.	.	.	.	.
8En\L	.	.	.	.	.	.	.
8G\	.	.	.	.	.	.	.
8c\	.	.	.	.	.	.	.
8c\J	.	.	.	.	.	.	.
=80	=80	=80	=80	=80	=80	=80	=80
4F\	.	4a\	.	4ff\	.	8ff\L	.
.	.	.	.	.	.	(8cc\	.
4r	.	4r	.	4r	.	8bn\	.
.	.	.	.	.	.	8cc\J)	.
2r	.	4r	.	2r	.	8a\L	.
.	.	.	.	.	.	8cc\	.
.	.	(gq\	.	.	.	.	.
.	.	8f\L	.	.	.	8a\	.
.	.	16en\L	.	.	.	8cc\J	.
.	.	16f\JJ)	.	.	.	.	.
=81	=81	=81	=81	=81	=81	=81	=81
1r	.	4g\	.	1r	.	8b-\L	.
.	.	.	.	.	.	8cc\	.
.	.	4c\	.	.	.	8b-\	.
.	.	.	.	.	.	8cc\J	.
.	.	4g\	.	.	.	8b-\L	.
.	.	.	.	.	.	8cc\	.
.	.	4c\	.	.	.	8b-\	.
.	.	.	.	.	.	8cc\J	.
=82	=82	=82	=82	=82	=82	=82	=82
1r	.	(2a\	.	8f/L	.	4a/	.
.	.	.	.	(8c/	.	.	.
.	.	.	.	8Bn/	.	4r	.
.	.	.	.	8c/J)	.	.	.
.	.	4f\)	.	8A/L	.	4r	.
.	.	.	.	8c/	.	.	.
.	.	.	.	.	.	(ggq\	.
.	.	4r	.	8A/	.	8ff\L	.
.	.	.	.	8c/J	.	16een\L	.
.	.	.	.	.	.	16ff\JJ)	.
=83	=83	=83	=83	=83	=83	=83	=83
1r	.	1r	.	8B-/L	.	4gg\	.
.	.	.	.	8c/	.	.	.
.	.	.	.	8en/	.	4cc\	.
.	.	.	.	8c/J	.	.	.
.	.	.	.	8B-/L	.	4gg\	.
.	.	.	.	8c/	.	.	.
.	.	.	.	8e/	.	4cc\	.
.	.	.	.	8c/J	.	.	.
=84	=84	=84	=84	=84	=84	=84	=84
2r	.	2r	.	8A/L	.	(2aa\	.
.	.	.	.	8c/	.	.	.
.	.	.	.	8f/	.	.	.
.	.	.	.	8c/J	.	.	.
4r	.	4r	.	8A/L	.	4ff\)	.
.	.	.	.	8c/	.	.	.
(GGq\	.	(B-q\	.	.	.	.	.
8FF/L	.	8A/L	.	8c/	.	(8a/L	.
16EEn/L	.	16G/L	.	8c/J	.	8f/J)	.
16FF/JJ)	.	16A/JJ)	.	.	.	.	.
=85	=85	=85	=85	=85	=85	=85	=85
4GG/	.	4C/ 4B-/	.	4b-\	.	8en/L	.
.	.	.	.	.	.	8f/	<
4CC/	<	4C/ 4G/	<	4g/	<	8g/	.
.	.	.	.	.	.	8a/J	.
4GG/	.	4C/ 4B-/	.	4b-\	.	8b-\L	.
.	.	.	.	.	.	8cc\	.
4CC/	.	4C/ 4G/	.	4g/	.	8dd\	.
.	.	.	.	.	.	8een\J	.
=86	=86	=86	=86	=86	=86	=86	=86
*	*	*^	*	*	*	*	*
(2AA/	.	(2c/	2.C\	.	(2cc\	.	8ff\L	.
.	.	.	.	.	.	.	8gg\	.
.	.	.	.	.	.	.	8aa\	.
.	.	.	.	.	.	.	8bb-\J	.
4FF/)	.	4A/)	.	.	4a/)	.	4ccc\	.
*	*	*v	*v	*	*	*	*	*
4FF/	.	(8c/L	.	(8a/L	.	4ccc\	.
.	.	8A/J)	.	8f/J)	.	.	.
=87	=87	=87	=87	=87	=87	=87	=87
4CC/	.	8G/L	.	8en/L	.	4ccc\	.
.	.	8A/	.	8f/	.	.	.
4C/	.	8B-/	.	8g/	.	4ccc\	.
.	.	8c/J	.	8a/J	.	.	.
4CC/	.	8d\L	.	8b-\L	.	4ccc\	.
.	.	8en\	.	8cc\	.	.	.
4C/	.	8f\	.	8dd\	.	4ccc\	.
.	.	8g\J	.	8een\J	.	.	.
=88	=88	=88	=88	=88	=88	=88	=88
8FF/L	.	8a\L	.	8ff\L	.	8ccc\L	.
8F/	.	8cc\	.	8aa\	.	8ccc\	.
8F/	.	8cc\	.	8aa\	.	8ddd\	.
8F/J	.	8b-\J	.	8gg\J	.	8eeen\J	.
8FF/L	.	8a\L	.	8ff\L	.	8fff\L	.
8F/	.	8cc\	.	8aa\	.	8ccc\	.
8F/	.	8cc\	.	8aa\	.	8ddd\	.
8F/J	.	8b-\J	.	8gg\J	.	8eee\J	.
=89	=89	=89	=89	=89	=89	=89	=89
8FF/L	.	8a\L	.	8ff\L	.	8fff\L	.
8F/	.	8cc\	.	8aa\	.	8ccc\	.
8F/	.	8cc\	.	8aa\	.	8ddd\	.
8F/J	.	8b-\J	.	8gg\J	.	8eeen\J	.
8FF/L	.	8a\L	.	8ff\L	.	8fff\L	.
8F/	.	8cc\	.	8aa\	.	8ccc\	.
8F/	.	8cc\	.	8aa\	.	8ddd\	.
8F/J	.	8b-\J	.	8gg\J	.	8eee\J	.
=90	=90	=90	=90	=90	=90	=90	=90
4FF/	.	4a\	.	4ff\	.	4fff\	.
4r	.	4r	.	4r	.	4r	.
4CC/ 4C/	.	4C/ 4c/	.	4G/ 4en/ 4cc/	.	4g\ 4b-\ 4een\	.
4r	.	4r	.	4r	.	4r	.
=91	=91	=91	=91	=91	=91	=91	=91
*>A1	*>A1	*>A1	*>A1	*>A1	*>A1	*>A1	*>A1
4FF/	.	4F/ 4c/	.	4A/ 4f/ 4cc/	.	4f\ 4a\ 4ff\	.
4r	.	4r	.	4r	.	4r	.
2r	.	2r	.	2r	.	2r	.
=92	=92	=92	=92	=92	=92	=92	=92
*>A2	*>A2	*>A2	*>A2	*>A2	*>A2	*>A2	*>A2
4FF/	.	4F/ 4c/	.	4A/ 4f/ 4cc/	.	4f\ 4a\ 4ff\	.
4r	.	4r	.	4r	.	4r	.
4r	.	4r	.	4r	.	4r	.
(Dq\	.	(dq\	.	(dq\	.	(dq\	.
8C/L	.	8c/L	.	8c/L	.	8c/L	.
16BBn/L	.	16Bn/L	.	16Bn/L	.	16Bn/L	.
16C/JJ)	.	16c/JJ)	.	16c/JJ)	.	16c/JJ)	.
=93	=93	=93	=93	=93	=93	=93	=93
*>B	*>B	*>B	*>B	*>B	*>B	*>B	*>B
4AA/	.	4A/	.	4A/	.	4A/	.
4F\	.	4f\	.	4f/	.	4f/	.
4C/	.	4c\	.	4c/	.	4c/	.
4A\	.	4a\	.	4a/	.	4a/	.
=94	=94	=94	=94	=94	=94	=94	=94
2.F\	.	2.f\	.	2.f/	.	2.f/	.
.	.	.	.	.	.	(ddq\	.
4r	.	4r	.	4r	.	8cc\L	.
.	.	.	.	.	.	16bn\L	.
.	.	.	.	.	.	16cc\JJ)	.
=95	=95	=95	=95	=95	=95	=95	=95
1r	.	1r	.	1r	.	4a/	.
.	.	.	.	.	.	4ff\	.
.	.	.	.	.	.	4cc\	.
.	.	.	.	.	.	4aa\	.
=96	=96	=96	=96	=96	=96	=96	=96
1r	.	2r	.	1r	.	2.ff\	.
.	.	4r	.	.	.	.	.
.	.	(dq\	.	.	.	.	.
.	.	8c/L	.	.	.	4r	.
.	.	16Bn/L	.	.	.	.	.
.	.	16c/JJ)	.	.	.	.	.
=97	=97	=97	=97	=97	=97	=97	=97
8FF/L	.	4A/	.	2r	.	1r	.
8AA/	.	.	.	.	.	.	.
8FF/	.	4r	.	.	.	.	.
8AA/J	.	.	.	.	.	.	.
8FF/L	.	2r	.	4r	.	.	.
8AA/	.	.	.	.	.	.	.
.	.	.	.	(ddq\	.	.	.
8FF/	.	.	.	8cc\L	.	.	.
8AA/J	.	.	.	16bn\L	.	.	.
.	.	.	.	16cc\JJ)	.	.	.
=98	=98	=98	=98	=98	=98	=98	=98
4FF/	.	2r	.	4a/	.	4r	.
.	.	.	.	.	.	(dddq\	.
4r	.	.	.	4r	.	8ccc\L	.
.	.	.	.	.	.	16bbn\L	.
.	.	.	.	.	.	16ccc\JJ)	.
2r	.	4r	.	2r	.	4aa\	.
.	.	(dq\	.	.	.	.	.
.	.	8c/L	.	.	.	4r	.
.	.	16Bn/L	.	.	.	.	.
.	.	16c/JJ)	.	.	.	.	.
=99	=99	=99	=99	=99	=99	=99	=99
8FF/L	.	4A/	.	2r	.	1r	.
8AA/	.	.	.	.	.	.	.
8FF/	.	4r	.	.	.	.	.
8AA/J	.	.	.	.	.	.	.
8FF/L	.	2r	.	4r	.	.	.
8AA/	.	.	.	.	.	.	.
.	.	.	.	(ddq\	.	.	.
8FF/	.	.	.	8cc\L	.	.	.
8AA/J	.	.	.	16bn\L	.	.	.
.	.	.	.	16cc\JJ)	.	.	.
=100	=100	=100	=100	=100	=100	=100	=100
4FF/	.	2r	.	4a/	.	4r	.
.	.	.	.	.	.	rq	.
.	.	.	.	.	.	dddq\	.
4r	.	.	.	4r	.	8ccc\L	.
.	.	.	.	.	.	16bbn\L	.
.	.	.	.	.	.	16ccc\JJ	.
2r	.	4r	.	2r	.	4aa\	.
.	.	(dq\	.	.	.	.	.
.	.	8c/L	.	.	.	4r	.
.	.	16Bn/L	.	.	.	.	.
.	.	16c/JJ)	.	.	.	.	.
=101	=101	=101	=101	=101	=101	=101	=101
8FF/L	.	(1A	.	(1c	.	(1cc	.
8AA/	<	.	.	.	.	.	.
8FF/	.	.	.	.	.	.	.
8AA/J	.	.	.	.	.	.	.
8FF/L	.	.	.	.	.	.	.
8AA/	.	.	.	.	.	.	.
8FF/	.	.	.	.	.	.	.
8AA/J	.	.	.	.	.	.	.
=102	=102	=102	=102	=102	=102	=102	=102
8EE-/L	.	1G)	<	1c#)	<	1cc#)	<
8AA/	.	.	.	.	.	.	.
8EE-/	.	.	.	.	.	.	.
8AA/J	.	.	.	.	.	.	.
8EE-/L	.	.	.	.	.	.	.
8AA/	.	.	.	.	.	.	.
8EE-/	.	.	.	.	.	.	.
8AA/J	.	.	.	.	.	.	.
=103	=103	=103	=103	=103	=103	=103	=103
8DD/L	.	2.F#/	.	2.A/ 2.d/	.	2.d/ 2.dd/	.
8AA/	.	.	.	.	.	.	.
8DD/	.	.	.	.	.	.	.
8AA/J	.	.	.	.	.	.	.
8DD/L	.	.	.	.	.	.	.
8AA/	.	.	.	.	.	.	.
.	.	.	.	.	.	(ee-q\	.
8DD/	.	4r	.	4r	.	8dd\L	.
8AA/J	.	.	.	.	.	16cc#\L	.
.	.	.	.	.	.	16dd\JJ)	.
=104	=104	=104	=104	=104	=104	=104	=104
8DD/L	.	1r	.	1r	.	4a/	.
8AA/	.	.	.	.	.	.	.
8DD/	.	.	.	.	.	4ff#\	.
8AA/J	.	.	.	.	.	.	.
8DD/L	.	.	.	.	.	4dd\	.
8AA/	.	.	.	.	.	.	.
8DD/	.	.	.	.	.	4aa\	.
8AA/J	.	.	.	.	.	.	.
=105	=105	=105	=105	=105	=105	=105	=105
8DD/L	.	4D/	.	4A/	.	4ff#\	.
8AA/	<	.	.	.	.	.	.
8DD/	.	4A/	<	4f#/	.	4ddd\	<
8AA/J	.	.	.	.	.	.	.
8DD/L	.	4F#/	.	4d/	.	4ff#\	.
8AA/	.	.	.	.	.	.	.
8DD/	.	4d\	.	4a/	.	4ddd\	.
8AA/J	.	.	.	.	.	.	.
=106	=106	=106	=106	=106	=106	=106	=106
8DD/L	.	4A/	.	4f#/	.	4ff#\	.
8AA/	<	.	.	.	.	.	.
8DD/	.	4f#\	.	4dd\	.	4ddd\	.
8AA/J	.	.	.	.	.	.	.
8DD/L	.	4d\	.	4a/	.	4ff#\	.
8AA/	.	.	.	.	.	.	.
8DD/	.	4a\	.	4ff#\	.	4ddd\	.
8AA/J	.	.	.	.	.	.	.
=107	=107	=107	=107	=107	=107	=107	=107
8CC/L	.	2.a\	.	2.ff#\	.	2.ff#\ 2.eee-\	.
8AA/	<	.	.	.	.	.	.
8CC/	.	.	.	.	.	.	.
8AA/J	.	.	.	.	.	.	.
8CC/L	.	.	.	.	.	.	.
8AA/	.	.	.	.	.	.	.
.	.	.	.	.	.	(ddq\	.
8CC/	.	4r	.	4r	.	8cc\L	.
8AA/J	.	.	.	.	.	16bn\L)	.
.	.	.	.	.	.	16cc\JJ	.
=108	=108	=108	=108	=108	=108	=108	=108
8CC/L	.	1r	.	1r	.	4a/	.
8AA/	.	.	.	.	.	.	.
8CC/	.	.	.	.	.	4ff#\	.
8AA/J	.	.	.	.	.	.	.
8CC/L	.	.	.	.	.	4cc\	.
8AA/	.	.	.	.	.	.	.
8CC/	.	.	.	.	.	4aa\	.
8AA/J	.	.	.	.	.	.	.
=109	=109	=109	=109	=109	=109	=109	=109
8CC/L	.	4C/	.	4A/	.	4ff#\	.
8AA/	<	.	.	.	.	.	.
8CC/	.	4A/	.	4f#/	<	4eee-\	<
8AA/J	.	.	.	.	.	.	.
8CC/L	.	4E-/	.	4c/	.	4ff#\	.
8AA/	.	.	.	.	.	.	.
8CC/	.	4c\	.	4a/	.	4eee-\	.
8AA/J	.	.	.	.	.	.	.
=110	=110	=110	=110	=110	=110	=110	=110
8CC/L	.	4A/	.	4f#/	.	4ff#\	.
8AA/	.	.	.	.	.	.	.
8CC/	.	4f#\	.	4ee-\	.	4eee-\	.
8AA/J	.	.	.	.	.	.	.
8CC/L	.	4c\	.	4a/	.	4ff#\	.
8AA/	.	.	.	.	.	.	.
8CC/	.	4a\	.	4ff#\	.	4eee-\	.
8AA/J	.	.	.	.	.	.	.
=111	=111	=111	=111	=111	=111	=111	=111
8BB-/L	.	4d\ 4b-\	.	4gg\	.	4ddd\	.
8D/	.	.	.	.	.	.	.
8BB-/	.	4r	.	4r	.	4r	.
8D/J	.	.	.	.	.	.	.
2r	.	2r	.	2r	.	8dd\L	.
.	.	.	.	.	.	8ddd\	.
.	.	.	.	.	.	8dd\	.
.	.	.	.	.	.	8ddd\J	.
=112	=112	=112	=112	=112	=112	=112	=112
8FF#/L	.	4d\ 4dd\	.	4a\ 4aa\	.	4ccc\	.
8D/	.	.	.	.	.	.	.
8FF#/	.	4r	.	4r	.	4r	.
8D/J	.	.	.	.	.	.	.
2r	.	2r	.	2r	.	8dd\L	.
.	.	.	.	.	.	8ccc\	.
.	.	.	.	.	.	8dd\	.
.	.	.	.	.	.	8ccc\J	.
=113	=113	=113	=113	=113	=113	=113	=113
1r	.	1r	.	1r	.	1r	.
=114	=114	=114	=114	=114	=114	=114	=114
2r	.	1r	.	1r	.	1r	.
4r	.	.	.	.	.	.	.
(8AA/L	.	.	.	.	.	.	.
8GG/J)	.	.	.	.	.	.	.
=115	=115	=115	=115	=115	=115	=115	=115
8FF#/L	.	1r	.	1r	.	1r	.
8GG/	.	.	.	.	.	.	.
8AA/	.	.	.	.	.	.	.
8BB-/J	.	.	.	.	.	.	.
8C\L	.	.	.	.	.	.	.
8D\	.	.	.	.	.	.	.
8En\	.	.	.	.	.	.	.
8F#\J	.	.	.	.	.	.	.
=116	=116	=116	=116	=116	=116	=116	=116
8G\L	.	2r	.	1r	.	1r	.
8A\	.	.	.	.	.	.	.
8B-\	.	.	.	.	.	.	.
8c\J	.	.	.	.	.	.	.
4d\	.	4r	.	.	.	.	.
4d\	.	(8A/L	.	.	.	.	.
.	.	8G/J)	.	.	.	.	.
=117	=117	=117	=117	=117	=117	=117	=117
4d\	.	8F#/L	.	1r	.	1r	.
.	.	8G/	.	.	.	.	.
4d\	.	8A/	.	.	.	.	.
.	.	8B-/J	.	.	.	.	.
4d\	.	8c\L	.	.	.	.	.
.	.	8d\	.	.	.	.	.
4d\	.	8en\	.	.	.	.	.
.	.	8f#\J	.	.	.	.	.
=118	=118	=118	=118	=118	=118	=118	=118
(2B-\	.	8g\L	.	2r	.	2r	.
.	.	8a\	.	.	.	.	.
.	.	8b-\	.	.	.	.	.
.	.	8cc\J	.	.	.	.	.
4G\)	.	4dd\	.	4r	.	4r	.
4r	.	4dd\	.	(8a/L	.	(8cc\L	.
.	.	.	.	8g/J)	.	8b-\J)	.
=119	=119	=119	=119	=119	=119	=119	=119
1r	.	4dd\	.	8f#/L	.	8a\L	.
.	.	.	.	8g/	.	8b-\	.
.	.	4dd\	.	8a/	.	8cc\	.
.	.	.	.	8b-/J	.	8dd\J	.
.	.	4dd\	.	8cc\L	.	8een\L	.
.	.	.	.	8dd\	.	8ff#\	.
.	.	4dd\	.	8een\	.	8gg\	.
.	.	.	.	8ff#\J	.	8aa\J	.
=120	=120	=120	=120	=120	=120	=120	=120
.	.	.	.	(aaq\	.	(cccq\	.
2r	.	(2b-\	.	8gg\L	.	8bb-\L	.
.	.	.	.	8ff#\	.	8aa\	.
.	.	.	.	8gg\	.	8bb-\	.
.	.	.	.	8aa\J)	.	8ccc\J)	.
4r	.	4g\)	.	4bb-\	.	4ddd\	.
(8GG/L	.	4r	.	4cc\	.	4ccc\	.
8FF/J)	.	.	.	.	.	.	.
=121	=121	=121	=121	=121	=121	=121	=121
8EEn/L	.	1r	.	4cc\	.	4ccc\	.
8FF/	.	.	.	.	.	.	.
8GG/	.	.	.	4cc\	.	4ccc\	.
8AA/J	.	.	.	.	.	.	.
8BB-/L	.	.	.	4cc\	.	4ccc\	.
8C/	.	.	.	.	.	.	.
8D/	.	.	.	4cc\	.	4ccc\	.
8En/J	.	.	.	.	.	.	.
=122	=122	=122	=122	=122	=122	=122	=122
8F\L	.	2r	.	(2a/	.	(2aa\	.
8G\	.	.	.	.	.	.	.
8A\	.	.	.	.	.	.	.
8B-\J	.	.	.	.	.	.	.
4c\	.	4r	.	4f/)	.	4ff\)	.
4c\	.	(8G/L	.	4r	.	4r	.
.	.	8F/J)	.	.	.	.	.
=123	=123	=123	=123	=123	=123	=123	=123
4c\	.	8En/L	.	1r	.	1r	.
.	.	8F/	.	.	.	.	.
4c\	.	8G/	.	.	.	.	.
.	.	8A/J	.	.	.	.	.
4c\	.	8B-\L	.	.	.	.	.
.	.	8c\	.	.	.	.	.
4c\	.	8d\	.	.	.	.	.
.	.	8en\J	.	.	.	.	.
=124	=124	=124	=124	=124	=124	=124	=124
(2A\	.	8f\L	.	2r	.	2r	.
.	.	8g\	.	.	.	.	.
.	.	8a\	.	.	.	.	.
.	.	8b-\J	.	.	.	.	.
4F\)	.	4cc\	.	4r	.	4r	.
4r	.	4cc\	.	(8g/L	.	(8b-/L	.
.	.	.	.	8f/J)	.	8a-/J)	.
=125	=125	=125	=125	=125	=125	=125	=125
1r	.	4cc\	.	8en/L	.	8g/L	.
.	.	.	.	8f/	.	8a-/	.
.	.	4cc\	.	8g/	.	8b-/	.
.	.	.	.	8a-/J	.	8cc/J	.
.	.	4cc\	.	8b-\L	.	8dd\L	.
.	.	.	.	8cc\	.	8een\	.
.	.	4cc\	.	8dd\	.	8ff\	.
.	.	.	.	8een\J	.	8gg\J	.
=126	=126	=126	=126	=126	=126	=126	=126
.	.	.	.	(ggq\	.	(bb-q\	.
2r	.	(2a-\	.	8ff\L	.	8aa-\L	.
.	.	.	.	8een\	.	8gg\	.
.	.	.	.	8ff\	.	8aa-\	.
.	.	.	.	8gg\J)	.	8bb-\J)	.
4r	.	4f\)	.	4aa-\	.	4ccc\	.
(8FF/L	.	4r	.	4b-\	.	4bb-\	.
8EE-/J)	.	.	.	.	.	.	.
=127	=127	=127	=127	=127	=127	=127	=127
8DD/L	.	1r	.	4b-\	.	4bb-\	.
8EE-/	.	.	.	.	.	.	.
8FF/	.	.	.	4b-\	.	4bb-\	.
8GG/J	.	.	.	.	.	.	.
8AA-/L	.	.	.	4b-\	.	4bb-\	.
8BB-/	.	.	.	.	.	.	.
8C/	.	.	.	4b-\	.	4bb-\	.
8D/J	.	.	.	.	.	.	.
=128	=128	=128	=128	=128	=128	=128	=128
8E-\L	.	2r	.	(2g/	.	(2gg\	.
8F\	.	.	.	.	.	.	.
8G\	.	.	.	.	.	.	.
8A-\J	.	.	.	.	.	.	.
4B-\	.	4r	.	4e-/)	.	4ee-\)	.
4B-\	.	(8F/L	.	4r	.	4r	.
.	.	8E-/J)	.	.	.	.	.
=129	=129	=129	=129	=129	=129	=129	=129
4B-\	.	8D/L	.	1r	.	1r	.
.	.	8E-/	.	.	.	.	.
4B-\	.	8F/	.	.	.	.	.
.	.	8G/J	.	.	.	.	.
4B-\	.	8A-/L	.	.	.	.	.
.	.	8B-/	.	.	.	.	.
4B-\	.	8c/	.	.	.	.	.
.	.	8d/J	.	.	.	.	.
=130	=130	=130	=130	=130	=130	=130	=130
(2G\	.	8e-\L	.	2r	.	2r	.
.	.	8f\	.	.	.	.	.
.	.	8g\	.	.	.	.	.
.	.	8a-\J	.	.	.	.	.
4E-\)	.	4b-\	.	4r	.	4r	.
4r	.	4b-\	.	(8f/L	.	(8a-/L	.
.	.	.	.	8e-/J)	.	&(8g-/J&))	.
=131	=131	=131	=131	=131	=131	=131	=131
1r	.	4b-\	.	8d/L	.	8f/L	.
.	.	.	.	8e-/	.	8g-/	.
.	.	4b-\	.	8f/	.	8a-/	.
.	.	.	.	8g-/J	.	8b-/J	.
.	.	4b-\	.	8a-\L	.	8cc\L	.
.	.	.	.	8b-\	.	8dd\	.
.	.	4b-\	.	8cc\	.	8ee-\	.
.	.	.	.	8dd\J	.	8ff\J	.
=132	=132	=132	=132	=132	=132	=132	=132
.	.	.	.	(ffq\	.	(aa-q\	.
1r	.	(2g-\	.	8ee-\L	.	8gg-\L	.
.	.	.	.	8dd\	.	8ff\	.
.	.	.	.	8ee-\	.	8gg-\	.
.	.	.	.	8ff\J)	.	8aa-\J)	.
.	.	4e-\)	.	4gg-\	.	4bb-\	.
.	.	4A-/	<	4a-/	.	(8e-/L	.
.	.	.	.	.	.	8d-/J)	<
=133	=133	=133	=133	=133	=133	=133	=133
1r	.	4A-/	.	4a-/	<	8c/L	.
.	.	.	.	.	.	8d-/	.
.	.	4A-/	.	4a-/	.	8e-/	.
.	.	.	.	.	.	8f/J	.
.	.	4A-/	.	4a-/	.	8g-/L	.
.	.	.	.	.	.	8a-/	.
.	.	4A-/	.	4a-/	.	8b-/	.
.	.	.	.	.	.	8cc/J	.
=134	=134	=134	=134	=134	=134	=134	=134
2r	.	(2F/	.	(2f/	.	8dd-\L	.
.	.	.	.	.	.	8ee-\	.
.	.	.	.	.	.	8ff\	.
.	.	.	.	.	.	8gg-\J	.
4r	.	4D-/)	.	4d-/)	.	4aa-\	.
4GG-/	.	4G-/	.	4r	.	(8d-/L	.
.	.	.	.	.	.	8c/J)	.
=135	=135	=135	=135	=135	=135	=135	=135
4GG-/	.	4G-/	.	1r	.	8B-/L	.
.	.	.	.	.	.	8c/	.
4GG-/	.	4G-/	.	.	.	8d-/	.
.	.	.	.	.	.	8e-/J	.
4GG-/	.	4G-/	.	.	.	8f/L	.
.	.	.	.	.	.	8g-/	.
4GG-/	.	4G-/	.	.	.	8a-/	.
.	.	.	.	.	.	8b-/J	.
=136	=136	=136	=136	=136	=136	=136	=136
(2EE-/	.	(2E-/	.	2r	.	8cc\L	.
.	.	.	.	.	.	8dd-\	.
.	.	.	.	.	.	8ee-\	.
.	.	.	.	.	.	8ff\J	.
4CC/	.	4C/)	.	4r	.	4gg-\	.
8C/L	.	4f\	.	4ff\	.	(8c/L	.
8BB-/J)	.	.	.	.	.	8B-/J)	.
=137	=137	=137	=137	=137	=137	=137	=137
8AA/L	.	4f\	.	4ff\	.	8A/L	.
8BB-/	.	.	.	.	.	8B-/	.
8C/	.	4f\	.	4ff\	.	8c/	.
8D-/J	.	.	.	.	.	8d-/J	.
8E-\L	.	4f\	.	4ff\	.	8e-/L	.
8F\	.	.	.	.	.	8f/	.
8G\	.	4f\	.	4ff\	.	8g/	.
8A\J	.	.	.	.	.	8a/J	.
=138	=138	=138	=138	=138	=138	=138	=138
8B-\L	.	8d-\L	.	8dd-\L	.	8b-\L	.
8c\	.	8c\	.	8cc\	.	8cc\	.
8d-\	.	8d-\	.	8dd-\	.	8dd-\	.
8e-\J	.	8e-\J	.	8ee-\J	.	8ee-\J	.
8f\L	.	8f\L	.	8ff\L	.	8ff\L	.
8e-\	.	8e-\	.	8ee-\	.	8ee-\	.
8d-\	.	8d-\	.	8dd-\	.	8dd-\	.
8c\J	.	8c\J	.	8cc\J	.	8cc\J	.
=139	=139	=139	=139	=139	=139	=139	=139
8B-\L	.	8B-/L	.	8b-/L	.	8b-/L	.
8A-\	.	8A-/	.	8a-/	.	8a-/	.
8G-\	.	8G-/	.	8g-/	.	8g-/	.
8F\J	.	8F/J	.	8f/J	.	8f/J	.
4En\	.	4En/	.	4en/	.	4en/	.
4E\	.	4E/	.	4e/	.	4e/	.
=140	=140	=140	=140	=140	=140	=140	=140
2.F\	.	2.F/	.	2.f/	.	2.f/	.
.	.	.	.	.	.	(gq\	.
4r	.	4r	.	4r	.	8f/L	.
.	.	.	.	.	.	16en/L	.
.	.	.	.	.	.	16f/JJ)	.
=141	=141	=141	=141	=141	=141	=141	=141
1r	.	1r	.	1r	.	4g/	.
.	.	.	.	.	.	4c/	.
.	.	.	.	.	.	4g/	.
.	.	.	.	.	.	4c/	.
=142	=142	=142	=142	=142	=142	=142	=142
1r	.	1r	.	2.f/	.	2.a/	.
.	.	.	.	(gq\	.	(b-q\	.
.	.	.	.	8f/L	.	8a/L	.
.	.	.	.	16en/L	.	16g/L	.
.	.	.	.	16f/JJ)	.	16a/JJ)	.
=143	=143	=143	=143	=143	=143	=143	=143
1r	.	1r	.	4g/	.	4b-\	.
.	.	.	.	4c/	.	4g/	.
.	.	.	.	4g/	.	4b-\	.
.	.	.	.	4c/	.	4g/	.
=144	=144	=144	=144	=144	=144	=144	=144
4F\	.	2r	.	4a/	.	[1cc	.
4C/	.	.	.	4f/	.	.	.
4F\	.	4A/	.	4a/	.	.	.
4C/	.	4F/	.	4f/	.	.	.
=145	=145	=145	=145	=145	=145	=145	=145
4G\	.	2r	.	4b-\	.	1cc_	.
4C/	.	.	.	4en/	.	.	.
4G\	.	4B-/	.	4b-\	.	.	.
4C/	.	4G/	.	4e/	.	.	.
=146	=146	=146	=146	=146	=146	=146	=146
4A\	.	2r	.	4cc\	.	2cc\]	.
4F\	.	.	.	4f/	.	.	.
4A\	.	4c\	.	4cc\	.	[2ff\	.
4F\	.	4A/	.	4f/	.	.	.
=147	=147	=147	=147	=147	=147	=147	=147
4B-\	.	4d-\	.	4dd-\	.	1ff_	.
4F\	.	4B-/	.	4f/	.	.	.
4Bn\	.	4dn\	.	4ddn\	.	.	.
4F\	.	4Bn/	.	4f/	.	.	.
=148	=148	=148	=148	=148	=148	=148	=148
(4c\	.	4e-\	.	(4ee-\	.	1ff_	.
4Bn\	.	4r	.	4dd\	<	.	.
4c\	.	2r	.	4ee-\	.	.	.
4d\)	.	.	.	4bn\	.	.	.
=149	=149	=149	=149	=149	=149	=149	=149
(4e-\	.	1r	.	4cc\	.	2ff\_	<
4d\	<	.	.	4bn\	>	.	.
4e-\	.	.	.	4cc\	.	(8ff\L]	>
.	.	.	.	.	.	8gg\	.
4Bn\	.	.	.	4dd\)	.	8ff\	.
.	.	.	.	.	.	8gg\J)	.
=150	=150	=150	=150	=150	=150	=150	=150
4c\	.	1r	.	(4ee-\	.	[1ff	.
4Bn\	>	.	.	4dd\	<	.	.
4c\	.	.	.	4ee-\	.	.	.
4d\)	.	.	.	4bn\	.	.	.
=151	=151	=151	=151	=151	=151	=151	=151
(4e-\	.	1r	.	4cc\	.	2ff\_	<
4d\	<	.	.	4bn\	>	.	.
4e-\	.	.	.	4cc\	.	(8ff\L]	>
.	.	.	.	.	.	8gg\	.
4Bn\	.	.	.	4dd\	.	8ff\	.
.	.	.	.	.	.	8gg\J)	.
=152	=152	=152	=152	=152	=152	=152	=152
4c\)	.	1r	.	4ee-\)	.	(8ff\L	.
.	.	.	.	.	.	8gg\	.
4r	.	.	.	4r	.	8ff\	.
.	.	.	.	.	.	8gg\J	.
2r	.	.	.	(8ff\L	.	8aa\L	.
.	.	.	.	8gg\	.	8bb-\	.
.	.	.	.	8ff\	.	8aa\	.
.	.	.	.	8gg\J	.	8bb-\J	.
=153	=153	=153	=153	=153	=153	=153	=153
1r	.	1r	.	8aa\L	.	8ccc\L	.
.	.	.	.	8bb-\	.	8ddd\	.
.	.	.	.	8aa\	.	8ccc\	.
.	.	.	.	8bb-\J)	.	8ddd\J)	.
.	.	.	.	4ccc\	.	4eee-\	.
.	.	.	.	4ccc\	.	4eee-\	.
=154	=154	=154	=154	=154	=154	=154	=154
2r	.	(8F/L	.	4ccc\	.	4eee-\	.
.	.	8G/	.	.	.	.	.
.	.	8F/	.	4r	.	4r	.
.	.	8G/J	.	.	.	.	.
(8F\L	.	8A/L	.	2r	.	2r	.
8G\	.	8B-/	.	.	.	.	.
8F\	.	8A/	.	.	.	.	.
8G\J	.	8B-/J	.	.	.	.	.
=155	=155	=155	=155	=155	=155	=155	=155
8A\L	.	8c\L	.	1r	.	1r	.
8B-\	.	8d\	.	.	.	.	.
8A\	.	8c\	.	.	.	.	.
8B-\J)	.	8d\J)	.	.	.	.	.
4c\	.	4e-\	.	.	.	.	.
4c\	.	4e-\	.	.	.	.	.
=156	=156	=156	=156	=156	=156	=156	=156
4c\	.	4e-\	.	2r	.	(8a/L	.
.	.	.	.	.	.	8b-/	.
4r	.	4r	.	.	.	8a/	.
.	.	.	.	.	.	8b-/J	.
2r	.	2r	.	(8a/L	.	8cc\L	.
.	.	.	.	8b-/	.	8dd\	.
.	.	.	.	8a/	.	8cc\	.
.	.	.	.	8b-/J	.	8dd\J	.
=157	=157	=157	=157	=157	=157	=157	=157
1r	.	1r	.	8cc\L	.	8ee-\L	.
.	.	.	.	8dd\	.	8ff\	.
.	.	.	.	8cc\	.	8ee-\	.
.	.	.	.	8dd\J)	.	8ff\J)	.
.	.	.	.	4ee-\	.	4gg\	.
.	.	.	.	4ee-\	.	4gg\	.
=158	=158	=158	=158	=158	=158	=158	=158
2r	.	(8A/L	.	4ee-\	.	4gg\	.
.	.	8B-/	.	.	.	.	.
.	.	8A/	.	4r	.	4r	.
.	.	8B-/J	.	.	.	.	.
(8A\L	.	8c\L	.	2r	.	2r	.
8B-\	.	8d\	.	.	.	.	.
8A\	.	8c\	.	.	.	.	.
8B-\J	.	8d\J	.	.	.	.	.
=159	=159	=159	=159	=159	=159	=159	=159
8c\L	.	8e-\L	.	1r	.	1r	.
8d\	.	8f\	.	.	.	.	.
8c\	.	8e-\	.	.	.	.	.
8d\J)	.	8f\J)	.	.	.	.	.
4e-\	.	4g\	.	.	.	.	.
4e-\	.	4g\	.	.	.	.	.
=160	=160	=160	=160	=160	=160	=160	=160
(2.e-\	.	(2.g\	.	1r	.	1r	.
8d\L	.	8f#\L	.	.	.	.	.
8e-\J	.	8g\J	.	.	.	.	.
=161	=161	=161	=161	=161	=161	=161	=161
4f\	.	4a\	.	1r	.	1r	.
4e-\	.	4g\	.	.	.	.	.
4d\	.	4f\	.	.	.	.	.
4c\)	.	4e-\)	.	.	.	.	.
=162	=162	=162	=162	=162	=162	=162	=162
(2B-\	.	(2d\	.	(2.ee-\	.	(2.gg\	.
2A\)	.	2c\)	.	.	.	.	.
.	.	.	.	8dd\L	.	8ff#\L	.
.	.	.	.	8ee-\J	.	8gg\J	.
=163	=163	=163	=163	=163	=163	=163	=163
2A\	.	2c\	.	4ff\	.	4aa\	.
.	.	.	.	4ee-\	.	4gg\	.
2r	.	2r	.	4dd\	.	4ff\	.
.	.	.	.	4cc\)	.	4ee-\)	.
=164	=164	=164	=164	=164	=164	=164	=164
(2.e-\	.	(2.g\	.	(2b-\	.	(2dd\	.
.	.	.	.	2a/)	.	2cc\)	.
8d\L	.	8f#\L	.	.	.	.	.
8e-\J	.	8g\J	.	.	.	.	.
=165	=165	=165	=165	=165	=165	=165	=165
8d\L	.	8f#\L	.	2a/	.	2cc\	.
8e-\	.	8g\	.	.	.	.	.
8d\	.	8f#\	.	.	.	.	.
8e-\J	.	8g\J	.	.	.	.	.
8f\L	.	8a\L	.	2r	.	2r	.
8e-\	.	8g\	.	.	.	.	.
8d\	.	8fn\	.	.	.	.	.
8c\J)	.	8e-\J)	.	.	.	.	.
=166	=166	=166	=166	=166	=166	=166	=166
(2B-\	.	(2d\	.	(2.ee-\	.	(2.gg\	.
2A\)	.	2c\)	.	.	.	.	.
.	.	.	.	8dd\L	.	8ff#\L	.
.	.	.	.	8ee-\J	.	8gg\J	.
=167	=167	=167	=167	=167	=167	=167	=167
2A\	.	2c\	.	8dd\L	.	8ff#\L	.
.	.	.	.	8ee-\	.	8gg\	.
.	.	.	.	8dd\	.	8ff#\	.
.	.	.	.	8ee-\J	.	8gg\J	.
2r	.	2r	.	8ff\L	.	8aa\L	.
.	.	.	.	8ee-\	.	8gg\	.
.	.	.	.	8dd\	.	8ffn\	.
.	.	.	.	8cc\J)	.	8ee-\J)	.
=168	=168	=168	=168	=168	=168	=168	=168
2r	.	2r	.	(4b-\	.	(4dd\	.
.	.	.	.	4a/)	.	4cc\)	.
(4B-\	.	(4d\	.	2r	.	2r	.
4A\)	.	4c\)	.	.	.	.	.
=169	=169	=169	=169	=169	=169	=169	=169
2r	.	2r	.	(4cc\	.	(4ee-\	.
.	.	.	.	4b-\)	.	4dd\)	.
(4c\	.	(4e-\	.	2r	.	2r	.
4B-\)	.	4d\)	.	.	.	.	.
=170	=170	=170	=170	=170	=170	=170	=170
2r	.	2r	.	(4dd\	.	(4ff\	.
.	.	.	.	4cc#\)	.	4een\)	.
(4d\	.	(4f\	.	2r	.	2r	.
4c#\)	.	4en\)	.	.	.	.	.
=171	=171	=171	=171	=171	=171	=171	=171
2r	.	2r	.	(4ee-\	.	(4gg\	.
.	.	.	.	4dd\)	.	4ff\)	.
(4e-\	.	(4g\	.	2r	.	2r	.
4d\)	.	4f\)	.	.	.	.	.
=172	=172	=172	=172	=172	=172	=172	=172
2c\	.	2e-\	.	2r	.	2r	.
2r	.	2r	.	2cc\	.	2ee-\	.
=173	=173	=173	=173	=173	=173	=173	=173
1r	.	1r	.	1r	.	1r	.
=174	=174	=174	=174	=174	=174	=174	=174
[1F	.	[1c	.	2r	.	2r	.
.	.	.	.	[2f/	.	[2cc\	.
=175	=175	=175	=175	=175	=175	=175	=175
1F]	.	1c]	.	1f]	.	1cc]	.
=176	=176	=176	=176	=176	=176	=176	=176
4BB-/	.	4B-/	.	8B-/L	.	2.B-/	.
.	.	.	.	8f/	.	.	.
4r	.	4B-/	.	8d/	.	.	.
.	.	.	.	8f/J	.	.	.
2r	.	4B-/	.	8d/L	.	.	.
.	.	.	.	8f/	.	.	.
.	.	.	.	.	.	(gq\	.
.	.	4B-/	.	8d/	.	8f/L	.
.	.	.	.	8f/J	.	16en/L	.
.	.	.	.	.	.	16f/JJ)	.
=177	=177	=177	=177	=177	=177	=177	=177
1r	.	4B-/	.	8d/L	.	4d/	.
.	.	.	.	8f/	.	.	.
.	.	4B-/	.	8d/	.	4b-\	.
.	.	.	.	8f/J	.	.	.
.	.	4B-/	.	8d/L	.	4f/	.
.	.	.	.	8f/	.	.	.
.	.	4B-/	.	8d/	.	4dd\	.
.	.	.	.	8f/J	.	.	.
=178	=178	=178	=178	=178	=178	=178	=178
1r	.	4B-/	.	8d/L	.	2.b-\	.
.	.	.	.	8f/	.	.	.
.	.	4B-/	.	8d/	.	.	.
.	.	.	.	8f/J	.	.	.
.	.	4B-/	.	8d/L	.	.	.
.	.	.	.	8f/	.	.	.
.	.	.	.	.	.	(ggq\	.
.	.	4B-/	.	8d/	.	8ff\L	.
.	.	.	.	8f/J	.	16een\L	.
.	.	.	.	.	.	16ff\JJ)	.
=179	=179	=179	=179	=179	=179	=179	=179
1r	.	4B-/	.	8d/L	.	4dd\	.
.	.	.	.	8f/	.	.	.
.	.	4B-/	.	8d/	.	4bb-\	.
.	.	.	.	8f/J	.	.	.
.	.	4B-/	.	8d/L	.	4ff\	.
.	.	.	.	8f/	.	.	.
.	.	4B-/	.	8d/	.	4ddd\	.
.	.	.	.	8f/J	.	.	.
=180	=180	=180	=180	=180	=180	=180	=180
2r	.	4B-/	.	8d/L	.	2.bb-\	.
.	.	.	.	8f/	.	.	.
.	.	4B-/	.	8d/	.	.	.
.	.	.	.	8f/J	.	.	.
4r	.	4B-/	.	8d/L	.	.	.
.	.	.	.	8f/	.	.	.
(Cq\	.	.	.	.	.	.	.
8BB-/L	.	4B-/	.	8d/	.	4r	.
16AA/L	.	.	.	8f/J	.	.	.
16BB-/JJ)	.	.	.	.	.	.	.
=181	=181	=181	=181	=181	=181	=181	=181
4C/	.	4A/	.	8e-/L	.	1r	.
.	.	.	.	8f/	.	.	.
4FF/	.	4A/	.	8e-/	.	.	.
.	.	.	.	8f/J	.	.	.
4C/	.	4A/	.	8e-/L	.	.	.
.	.	.	.	8f/	.	.	.
4FF/	.	4A/	.	8e-/	.	.	.
.	.	.	.	8f/J	.	.	.
=182	=182	=182	=182	=182	=182	=182	=182
(2D\	.	4B-/	.	8d/L	.	2r	.
.	.	.	.	8f/	.	.	.
.	.	4B-/	.	8d/	.	.	.
.	.	.	.	8f/J	.	.	.
4BB-/)	.	4B-/	.	8d/L	.	4r	.
.	.	.	.	8f/	.	.	.
.	.	.	.	.	.	(cccq\	.
4r	.	4B-/	.	8d/	.	8bb-\L	.
.	.	.	.	8f/J	.	16aa\L	.
.	.	.	.	.	.	16bb-\JJ)	.
=183	=183	=183	=183	=183	=183	=183	=183
1r	.	4A/	.	8e-/L	.	4ccc\	.
.	.	.	.	8f/	.	.	.
.	.	4A/	.	8e-/	.	4ff\	.
.	.	.	.	8f/J	.	.	.
.	.	4A/	.	8e-/L	.	4ccc\	.
.	.	.	.	8f/	.	.	.
.	.	4A/	.	8e-/	.	4ff\	.
.	.	.	.	8f/J	.	.	.
=184	=184	=184	=184	=184	=184	=184	=184
2r	.	4B-/	.	8d/L	.	(2ddd\	.
.	.	.	.	8f/	.	.	.
.	.	4B-/	.	8d/	.	.	.
.	.	.	.	8f/J	.	.	.
4r	.	4B-/	.	8d/L	.	4bb-\)	.
.	.	.	.	8f/	.	.	.
(Cq\	.	.	.	.	.	.	.
8BB-/L	.	4B-/	.	8d/	.	4r	.
16AA/L	.	.	.	8f/J	.	.	.
16BB-/JJ)	.	.	.	.	.	.	.
=185	=185	=185	=185	=185	=185	=185	=185
4C/	.	4A/	.	8e-/L	.	1r	.
.	.	.	.	8f/	.	.	.
4FF/	.	4A/	.	8e-/	.	.	.
.	.	.	.	8f/J	.	.	.
4C/	.	4A/	.	8e-/L	.	.	.
.	.	.	.	8f/	.	.	.
4FF/	.	4A/	.	8e-/	.	.	.
.	.	.	.	8f/J	.	.	.
=186	=186	=186	=186	=186	=186	=186	=186
(2BB-/	.	4B-/	.	8d/L	.	1r	.
.	.	.	.	8f/	.	.	.
.	.	4B-/	.	8d/	.	.	.
.	.	.	.	8f/J	.	.	.
2GG/	.	4f\	.	8d/L	.	.	.
.	.	.	.	8b-/	.	.	.
.	.	4f\	.	8d/	.	.	.
.	.	.	.	8b-/J	.	.	.
=187	=187	=187	=187	=187	=187	=187	=187
2GG/	.	4g\	.	8d/L	.	1r	.
.	.	.	.	8b-/	.	.	.
.	.	4g\	.	8d/	.	.	.
.	.	.	.	8b-/J	.	.	.
2C/)	.	4G/	.	8en/L	.	.	.
.	.	.	.	8b-/	.	.	.
.	.	4G/	.	8e/	.	.	.
.	.	.	.	8b-/J	.	.	.
=188	=188	=188	=188	=188	=188	=188	=188
4FF/	.	4F/	.	8a\L	.	2r	.
.	.	.	.	8cc\	.	.	.
4r	.	4f\	.	8a\	.	.	.
.	.	.	.	8cc\J	.	.	.
2r	.	4en\	.	8b-\L	.	4r	.
.	.	.	.	8cc\	.	.	.
.	.	.	.	.	.	(dddq\	.
.	.	4e\	.	8b-\	.	8ccc\L	.
.	.	.	.	8cc\J	.	16bbn\L	.
.	.	.	.	.	.	16ccc\JJ)	.
=189	=189	=189	=189	=189	=189	=189	=189
2r	.	4f\	.	8a\L	.	4fff\	.
.	.	.	.	8cc\	.	.	.
.	.	4f\	.	8a\	.	4r	.
.	.	.	.	8cc\J	.	.	.
4r	.	4en\	.	8g/L	.	2r	.
.	.	.	.	8cc/	.	.	.
(Dq\	.	.	.	.	.	.	.
8C/L	.	4e\	.	8g/	.	.	.
16BBn/L	.	.	.	8cc/J	.	.	.
16C/JJ)	.	.	.	.	.	.	.
=190	=190	=190	=190	=190	=190	=190	=190
4FF/	.	4f\	.	8a\L	.	2r	.
.	.	.	.	8cc\	.	.	.
4r	.	4f\	.	8a\	.	.	.
.	.	.	.	8cc\J	.	.	.
2r	.	4en\	.	8b-\L	.	4r	.
.	.	.	.	8cc\	.	.	.
.	.	.	.	.	.	(dddq\	.
.	.	4e\	.	8b-\	.	8ccc\L	.
.	.	.	.	8cc\J	.	16bbn\L	.
.	.	.	.	.	.	16ccc\JJ)	.
=191	=191	=191	=191	=191	=191	=191	=191
2r	.	4f\	.	8a\L	.	4fff\	.
.	.	.	.	8cc\	.	.	.
.	.	4f\	.	8a\	.	4r	.
.	.	.	.	8cc\J	.	.	.
4r	.	4en\	.	8g/L	.	2r	.
.	.	.	.	8cc/	.	.	.
(Dq\	.	.	.	.	.	.	.
8C/L	.	4e\	.	8g/	.	.	.
16BBn/L	.	.	.	8cc/J	.	.	.
16C/JJ)	.	.	.	.	.	.	.
=192	=192	=192	=192	=192	=192	=192	=192
4FF/	.	4f\	.	8a/L	.	1r	.
.	.	.	.	8cc/	<	.	.
(Dq\	.	.	.	.	.	.	.
8C/L	<	4en\	<	8g/	.	.	.
16BBn/L	.	.	.	8cc/J	.	.	.
16C/JJ	.	.	.	.	.	.	.
4FF/	.	4f\	.	8a/L	.	.	.
.	.	.	.	8cc/	.	.	.
Dq\	.	.	.	.	.	.	.
8C/L	.	4e\	.	8g/	.	.	.
16BB/L	.	.	.	8cc/J	.	.	.
16C/JJ)	.	.	.	.	.	.	.
=193	=193	=193	=193	=193	=193	=193	=193
8FF/L	.	4f\	.	4a/	.	1r	.
8GG/	.	.	.	.	.	.	.
8AA/	.	4r	.	4r	.	.	.
8BB-/J	.	.	.	.	.	.	.
8C/L	.	4r	.	2r	.	.	.
8D/	.	.	.	.	.	.	.
.	.	(gq\	.	.	.	.	.
8E-/	.	8f\L	.	.	.	.	.
8C/J	.	16en\L	.	.	.	.	.
.	.	16f\JJ)	.	.	.	.	.
=194	=194	=194	=194	=194	=194	=194	=194
8D/L	.	4B-/	.	1r	.	1r	.
8BB-/	.	.	.	.	.	.	.
.	.	(gq\	.	.	.	.	.
8E-/	.	8f\L	.	.	.	.	.
8BB-/J	.	16en\L	.	.	.	.	.
.	.	16f\JJ)	.	.	.	.	.
8D/L	.	4B-/	.	.	.	.	.
8BB-/	.	.	.	.	.	.	.
.	.	(gq\	.	.	.	.	.
8E-/	.	8f\L	.	.	.	.	.
8BB-/J	.	16e\L	.	.	.	.	.
.	.	16f\JJ)	.	.	.	.	.
=195	=195	=195	=195	=195	=195	=195	=195
8D/L	.	8B-\L	.	1r	.	2r	.
8C/	.	8c\	.	.	.	.	.
8BB-/	.	8d\	.	.	.	.	.
8C/J	.	8e-\J	.	.	.	.	.
8D\L	.	8f\L	.	.	.	4r	.
8E-\	.	8g\	.	.	.	.	.
.	.	.	.	.	.	(dddq\	.
8F\	.	8a-\	.	.	.	8bb-\L	.
8D\J	.	8f\J	.	.	.	16aa\L	.
.	.	.	.	.	.	16bb-\JJ)	.
=196	=196	=196	=196	=196	=196	=196	=196
4E-\	.	8g\L	.	4r	.	4ee-\	.
.	.	8e-\	.	.	.	.	.
.	.	.	.	.	.	(cccq\	.
4E-\	.	8a-\	.	(4dd\	.	8bb-\L	.
.	.	8f\J	.	.	.	16aa\L	.
.	.	.	.	.	.	16bb-\JJ)	.
4E-\	.	8g\L	.	4ee-\)	.	4ee-\	.
.	.	8e-\	.	.	.	.	.
.	.	.	.	.	.	(cccq\	.
4E-\	.	(8a-\	.	(4dd\	.	8bb-\L	.
.	.	8f\J)	.	.	.	16aa\L	.
.	.	.	.	.	.	16bb-\JJ)	.
=197	=197	=197	=197	=197	=197	=197	=197
4E-\	.	8g\L	.	4ee-\)	.	4ee-\	.
.	.	8e-\	.	.	.	.	.
.	.	.	.	(ccq\	.	.	.
4E-\	.	8B-\	.	8b-/L	.	4r	.
.	.	8G\J	.	16a/L	.	.	.
.	.	.	.	16b-/JJ)	.	.	.
4E-\	.	8g\L	.	4e-/	.	4r	.
.	.	8e-\	.	.	.	.	.
.	.	.	.	.	.	(cccq\	.
4E-\	.	8a-\	.	(4dd\	.	8bb-\L	.
.	.	8f\J	.	.	.	16aa\L	.
.	.	.	.	.	.	16bb-\JJ)	.
=198	=198	=198	=198	=198	=198	=198	=198
4E-\	.	8g\L	.	4ee-\)	.	4ee-\	.
.	.	8e-\	.	.	.	.	.
.	.	.	.	.	.	(cccq\	.
4E-\	.	8a-\	.	(4dd\	.	8bb-\L	.
.	.	8f\J	.	.	.	16aa\L	.
.	.	.	.	.	.	16bb-\JJ)	.
4E-\	.	8g\L	.	4ee-\)	.	4ee-\	.
.	.	8e-\	.	.	.	.	.
.	.	.	.	.	.	(cccq\	.
4E-\	.	(8a-\	.	(4dd\	.	8bb-\L	.
.	.	8f\J)	.	.	.	16aa\L	.
.	.	.	.	.	.	16bb-\JJ)	.
=199	=199	=199	=199	=199	=199	=199	=199
4E-\	.	4g\	.	4ee-\)	.	(2.ee-\	.
4r	.	4g\	.	4b-\	.	.	.
4e-\	.	4r	.	4r	.	.	.
4r	.	4g\	.	4b-\	.	8dd\L	.
.	.	.	.	.	.	8ee-\J)	.
=200	=200	=200	=200	=200	=200	=200	=200
4B-\	.	4r	.	4r	.	(2.ff\	.
4r	.	4d\	.	4b-\	.	.	.
4B-\	.	4r	.	4r	.	.	.
4r	.	4d\	.	4b-\	.	8ee-\L	.
.	.	.	.	.	.	8ff\J)	.
=201	=201	=201	=201	=201	=201	=201	=201
4e-\	.	4r	.	4r	.	(2.gg\	.
4r	.	4e-\	.	4b-\	.	.	.
4e-\	.	4r	.	4r	.	.	.
4r	.	4g\	.	4b-\	.	8ff\L	.
.	.	.	.	.	.	8gg\J)	.
=202	=202	=202	=202	=202	=202	=202	=202
4A-\	.	4r	.	4r	.	4aa-\	.
4r	.	4f\	.	4cc\	.	4aa-\	.
4B-\	.	4r	.	4r	.	(8aa-\L	.
.	.	.	.	.	.	8ff\	.
4r	.	4f\	.	4a-/	.	8dd\	.
.	.	.	.	.	.	8b-\J)	.
=203	=203	=203	=203	=203	=203	=203	=203
4E-\	.	4B-\ 4g-\	.	(2.e-/	.	(2.ee-\	.
4r	.	4B-\ 4g-\	.	.	.	.	.
4E-\	.	4r	.	.	.	.	.
4r	.	4B-\ 4g-\	.	8d/L	.	8dd\L	.
.	.	.	.	8e-/J)	.	8ee-\J)	.
=204	=204	=204	=204	=204	=204	=204	=204
4BB-/	.	4r	.	(2.f/	.	(2.ff\	.
4r	.	4B-\ 4d\	.	.	.	.	.
4BB-/	.	4r	.	.	.	.	.
4r	.	4B-\ 4d\	.	8e-/L	.	8ee-\L	.
.	.	.	.	8f/J)	.	8ff\J)	.
=205	=205	=205	=205	=205	=205	=205	=205
4E-\	.	4r	.	2.g-/	.	2.gg-\	.
4r	.	4B-\ 4e-\	.	.	.	.	.
4E-\	.	4r	.	.	.	.	.
4r	.	4B-\ 4e-\	.	(8g-/L	.	(8gg-\L	.
.	.	.	.	8f/J)	.	8ff\J)	.
=206	=206	=206	=206	=206	=206	=206	=206
4G-\	.	4r	.	4e-/	.	4ee-\	.
4r	.	4B-/	.	(8e-/L	.	(8ee-\L	.
.	.	.	.	8d-/J)	.	8dd-\J)	.
4G-\	.	4r	.	4c/	.	4cc\	.
4r	.	4en\	.	(8c/L	.	(8cc\L	.
.	.	.	.	8B-/J)	.	8b-\J)	.
=207	=207	=207	=207	=207	=207	=207	=207
4FF/	.	4f\	.	4A/	.	4a/	.
2F\	.	2A/	.	2c/	.	2f/	.
4F\	.	4A/	.	4c/	.	(8g/L	.
.	.	.	.	.	.	8f/J)	.
=208	=208	=208	=208	=208	=208	=208	=208
4FF/	.	4B-/	.	4c/	.	8en/L	.
.	.	.	.	.	.	8f/	.
2F\	.	2B-/	.	2c/	.	8g/	.
.	.	.	.	.	.	8a/J	.
.	.	.	.	.	.	8b-\L	.
.	.	.	.	.	.	8cc\	.
4F\	.	4B-/	.	4c/	.	8dd\	.
.	.	.	.	.	.	8een\J	.
=209	=209	=209	=209	=209	=209	=209	=209
4FF/	.	4A/	.	4c/	.	8ff\L	.
.	.	.	.	.	.	8gg\	.
4F\	.	2f\	.	2a/	.	8aa\	.
.	.	.	.	.	.	8bb-\J	.
4FF/	.	.	.	.	.	4ccc\	.
4F\	.	(8en\L	.	(8g/L	.	4ccc\	.
.	.	8f\J)	.	8a/J)	.	.	.
=210	=210	=210	=210	=210	=210	=210	=210
4FF/	.	8g\L	.	8b-/L	.	4ccc\	.
.	.	8f\	.	8a/	.	.	.
4F\	.	8en\	.	8g/	.	4ccc\	.
.	.	8d\J	.	8f/J	.	.	.
4FF/	.	8c/L	.	8en/L	.	4ccc\	.
.	.	8B-/	.	8d/	.	.	.
4F\	.	8A/	.	8c/	.	4ccc\	.
.	.	8G/J	.	8B-/J	.	.	.
=211	=211	=211	=211	=211	=211	=211	=211
4FF/	.	4F/	.	4A/	.	4aa\	.
2F\	.	2c\	.	2f/ 2a/	.	2f/	.
4F\	.	4c\	.	4f/ 4a/	.	(8g/L	.
.	.	.	.	.	.	8f/J)	.
=212	=212	=212	=212	=212	=212	=212	=212
4FF/	.	4c\	.	4g/ 4b-/	.	8en/L	.
.	.	.	.	.	.	8f/	.
2F\	.	2c\	.	2g/ 2b-/	.	8g/	.
.	.	.	.	.	.	8a/J	.
.	.	.	.	.	.	8b-\L	.
.	.	.	.	.	.	8cc\	.
4F\	.	4c\	.	4g/ 4b-/	.	8dd\	.
.	.	.	.	.	.	8een\J	.
=213	=213	=213	=213	=213	=213	=213	=213
4FF/	.	4c\	.	4f/ 4a/	.	8ff\L	.
.	.	.	.	.	.	8gg\	.
4F\	.	2f\	.	2aa\	.	8aa\	.
.	.	.	.	.	.	8bb-\J	.
4FF/	.	.	.	.	.	4ccc\	.
8FF/L	.	(8en\L	.	(8gg\L	.	4ccc\	.
8FF/J	.	8f\J)	.	8aa\J)	.	.	.
=214	=214	=214	=214	=214	=214	=214	=214
8EEn/L	.	8g\L	.	8bb-\L	.	4ccc\	.
8FF/	.	8f\	.	8aa\	.	.	.
8GG/	.	8en\	.	8gg\	.	4ccc\	.
8AA/J	.	8d\J	.	8ff\J	.	.	.
8BB-/L	.	8c/L	.	8een\L	.	4ccc\	.
8C/	.	8B-/	.	8dd\	.	.	.
8D/	.	8A/	.	8cc\	.	4ccc\	.
8En/J	.	8G/J	.	8b-\J	.	.	.
=215	=215	=215	=215	=215	=215	=215	=215
4F\	.	4F/	.	4a/	.	(8aa\L	.
.	.	.	.	.	.	8ff\)	.
4En\	.	4g\	.	4b-\	.	8ccc\	.
.	.	.	.	.	.	8ccc\J	.
4F\	.	4f\	.	4a/	.	(8aa\L	.
.	.	.	.	.	.	8ff\)	.
4C/	.	4en\	.	4b-\	.	8ccc\	.
.	.	.	.	.	.	8ccc\J	.
=216	=216	=216	=216	=216	=216	=216	=216
4FF/	.	4f\	.	4a/	.	(8aa\L	.
.	.	.	.	.	.	8ff\)	.
4CC/	.	4b-\	.	4een\	.	8ccc\	.
.	.	.	.	.	.	8ccc\J	.
4FF/	.	4a\	.	4ff\	.	(8aa\L	.
.	.	.	.	.	.	8ff\)	.
4CC/	.	4B-\ 4g\	.	4ee\	.	8ccc\	.
.	.	.	.	.	.	8ccc\J	.
=217	=217	=217	=217	=217	=217	=217	=217
4FF/	.	4A\ 4f\	.	4ff\	.	4aa\	.
4r	.	4r	.	4r	.	4r	.
4F\	.	4f\	.	4ff\	.	4ff\	.
4r	.	4r	.	4r	.	4r	.
=218	=218	=218	=218	=218	=218	=218	=218
4FF/	.	4F/	.	4f/	.	4f/	.
4r	.	4r	.	4r	.	4r	.
2r	.	2r	.	2r	.	4r	.
.	.	.	.	.	.	(4f/	.
=219	=219	=219	=219	=219	=219	=219	=219
4B-\	.	4b-\	.	4f/	.	4dd\)	.
4r	.	4r	.	4r	.	4r	.
4.B-\	.	4.f\	.	4.b-\	.	4.dd\	.
8B-\	.	8f\	.	8b-\	.	8dd\	.
=220	=220	=220	=220	=220	=220	=220	=220
[2B-\	.	[2f\	.	[2b-\	.	[2dd\	.
4.B-\]	.	4.f\]	.	4.b-\]	.	4.dd\]	.
8B-\	.	8f\	.	8b-\	.	8dd\	.
=221	=221	=221	=221	=221	=221	=221	=221
.	.	.	.	ddq\	.	ffq\	.
4.A\	.	4.f\	.	4.cc\	.	4.ee-\	.
8B-\	.	8f\	.	8b-\	.	8dd\	.
.	.	.	.	ddq\	.	ffq\	.
4.A\	.	4.f\	.	4.cc\	.	4.ee-\	.
8B-\	.	8f\	.	8b-\	.	8dd\	.
=222	=222	=222	=222	=222	=222	=222	=222
1F	.	(4f\	<	1a	.	2.cc\	<
.	.	4g-\	.	.	.	.	.
.	.	4f\	>	.	.	.	.
.	.	4e-\)	.	.	.	4f/	>
=223	=223	=223	=223	=223	=223	=223	=223
4B-\	<	4d-\	.	4b-\	<	4ff\	.
4r	.	4r	.	4r	.	4r	.
2r	.	4.b-\	.	4.dd-\	.	4.ff\	.
.	.	8b-\	.	8dd-\	.	8ff\	.
=224	=224	=224	=224	=224	=224	=224	=224
1r	.	[2b-\	.	[2dd-\	.	[2ff\	.
.	.	4.b-\]	.	4.dd-\]	.	4.ff\]	.
.	.	8b-\	.	8dd-\	.	8ff\	.
=225	=225	=225	=225	=225	=225	=225	=225
.	.	dd-q\	.	ffq\	.	.	.
1r	.	4.cc\	.	4.ee-\	.	4.aa\	.
.	.	8b-\	.	8dd-\	.	8bb-\	.
.	.	dd-q\	.	ffq\	.	.	.
.	.	4.cc\	.	4.ee-\	.	4.aa\	.
.	.	8b-\	.	8dd-\	.	8bb-\	.
=226	=226	=226	=226	=226	=226	=226	=226
(4f\	.	(2.a\	.	(2.cc\	.	1ff	.
4g-\	<	.	.	.	.	.	.
4f\	.	.	.	.	.	.	.
4F\)	>	4e-\)	<	4a/)	<	.	.
=227	=227	=227	=227	=227	=227	=227	=227
4B-\	.	4d-\	.	4b-\	.	4ff\	<
4r	.	4r	.	4r	.	4r	.
4.A-\	.	4.dn\	.	4.b-\	.	4.ff\	.
8A-\	.	8d\	.	8b-\	.	8ff\	.
=228	=228	=228	=228	=228	=228	=228	=228
[2G-\	.	[2e-\	.	[2b-\	.	[2bb-\	.
4.G-\]	>	4.e-\]	>	4.b-\]	>	4.bb-\]	>
8r	.	8e-\	.	8b-\	.	8gg-\	.
=229	=229	=229	=229	=229	=229	=229	=229
1r	.	4a-\	.	4dd-\	.	4ff\	.
.	.	4r	.	4r	.	4r	.
.	.	4g-\	.	4cc\	.	4ee-\	.
.	.	4r	.	4r	.	4r	.
=230	=230	=230	=230	=230	=230	=230	=230
1r	.	1f	.	1dd-	.	1aa-	.
=231	=231	=231	=231	=231	=231	=231	=231
4G-\	.	4B-/	.	4g-/	.	4dd-\	.
4r	<	4r	<	4r	<	4r	<
4.G-\	.	4.B-/	.	4.g-/	.	4.dd-\	.
8G-\	.	8B-/	.	8g-/	.	8dd-\	.
=232	=232	=232	=232	=232	=232	=232	=232
[2E-\	.	[2c\	.	[2g-/	.	[2gg-\	.
4.E-\]	>	4.c\]	>	4.g-/]	>	4.gg-\]	>
8e-\	.	8g-\	.	8cc-\	.	8ee-\	.
=233	=233	=233	=233	=233	=233	=233	=233
4f\	.	4f\	.	4b-\	.	4dd-\	.
4r	.	4r	.	4r	.	4r	.
4e-\	.	4f\	.	4a/	.	4cc\	.
4r	.	4r	.	4r	.	4r	.
=234	=234	=234	=234	=234	=234	=234	=234
[2d-\	.	[2f\	.	[2b-\	.	[2ff\	.
4.d-\]	.	4.f\]	.	4.b-\]	.	4.ff\]	.
8e-\	.	8g-\	.	8cc-\	.	8ee-\	.
=235	=235	=235	=235	=235	=235	=235	=235
4f\	.	4f\	.	4b-\	.	4dd-\	.
4r	.	4r	.	4r	.	4r	.
4e-\	.	4f\	.	4a/	.	4cc\	.
4r	.	4r	.	4r	.	4r	.
=236	=236	=236	=236	=236	=236	=236	=236
[2d\	.	[2f\	.	[2b-\	.	[2ff\	.
4.d\]	.	4.f\]	.	4.b-\]	.	4.ff\]	.
8e-\	.	8g\	.	8cc\	.	8ee-\	.
=237	=237	=237	=237	=237	=237	=237	=237
4f\	.	4f\	.	4b-\	.	4dd\	.
4r	.	4r	.	4r	.	4ddd\	.
4e-\	.	4f\	.	4a/	.	4r	.
4r	.	4r	.	4r	.	4ccc\	.
=238	=238	=238	=238	=238	=238	=238	=238
1d	.	1f	.	1b-	.	2.fff\	.
.	.	.	.	.	.	4ff\	.
=239	=239	=239	=239	=239	=239	=239	=239
1A	.	1f	.	1cc	.	2.eee-\	.
.	.	.	.	.	.	4ee-\	.
=240	=240	=240	=240	=240	=240	=240	=240
2.B-\	.	2.f\	.	2.dd\	.	2.ddd\	.
4G\	.	4g\	.	4b-\	.	4dd\	.
=241	=241	=241	=241	=241	=241	=241	=241
4E-\	.	4r	.	4r	.	4ccc\	.
4r	.	4e-\	.	4g/	.	4cc\	.
4F\	.	4r	.	4r	.	4aa\	.
4r	.	4c\	.	4e-/	.	4a/	.
=242	=242	=242	=242	=242	=242	=242	=242
4r	.	4r	.	4r	.	[2fff\	.
(4d\	.	2f\	.	(4b-\	.	.	.
4c#\	.	.	.	4a/	.	8fff\L]	.
.	.	.	.	.	.	8ff\	.
4d\)	.	4f\	.	4b-\)	.	8ff\	.
.	.	.	.	.	.	8ff\J	.
=243	=243	=243	=243	=243	=243	=243	=243
1r	.	4r	.	4r	.	[2eee-\	.
.	.	(4a\	.	(4cc\	.	.	.
.	.	4g#\	.	4bn\	.	8eee-\L]	.
.	.	.	.	.	.	8ee-\	.
.	.	4a\)	.	4cc\)	.	8ee-\	.
.	.	.	.	.	.	8ee-\J	.
=244	=244	=244	=244	=244	=244	=244	=244
4r	.	4r	.	4r	.	[2ddd\	.
(4B-\	.	(4f\	.	(4dd\	.	.	.
4A\	<	4f#\	.	4cc\	<	8ddd\L]	<
.	.	.	.	.	.	8dd\	.
4G\)	.	4g\)	.	4b-\)	.	8dd\	.
.	.	.	.	.	.	8dd\J	.
=245	=245	=245	=245	=245	=245	=245	=245
4F#\	.	4d\	.	4a/	.	8ccc\L	.
.	.	.	.	.	.	8cc\	.
4r	.	4d\	.	4aa\	.	8cc\	.
.	.	.	.	.	.	8cc\J	.
4G\	.	4r	.	4r	.	8bb-\L	.
.	.	.	.	.	.	8b-\	.
4r	.	4d\	.	4gg\	.	8b-\	.
.	.	.	.	.	.	8b-\J	.
=246	=246	=246	=246	=246	=246	=246	=246
4D\	.	4r	.	4r	.	8aa-\L	.
.	.	.	.	.	.	8a-\	.
4r	.	4B-/	.	4ff\	.	8a-\	.
.	.	.	.	.	.	8a-\J	.
4E-\	.	4r	.	4r	.	8gg\L	.
.	.	.	.	.	.	8g\	.
4r	.	4B-/	.	4ee-\	.	8g\	.
.	.	.	.	.	.	8g\J	.
=247	=247	=247	=247	=247	=247	=247	=247
4BBn/	.	4r	.	4r	.	8ff\L	.
.	.	.	.	.	.	8f\	.
4r	.	4F/	.	4dd\	.	8f\	.
.	.	.	.	.	.	8f\J	.
4C/	.	4r	.	4r	.	8een/L	.
.	.	.	.	.	.	8en/	.
4r	.	4F/	.	4b-\	.	8e/	.
.	.	.	.	.	.	8e/J	.
=248	=248	=248	=248	=248	=248	=248	=248
4FF#/	.	4C/ 4c/	.	4a/	.	8e-/L	.
.	.	.	.	.	.	8a/	.
4r	.	4r	.	4r	.	8cc/	.
.	.	.	.	.	.	8ee-/J	.
2r	.	2r	.	2r	.	8aa\L	.
.	.	.	.	.	.	8ccc\	.
.	.	.	.	.	.	8eee-\	.
.	.	.	.	.	.	8eee-\J	.
=249	=249	=249	=249	=249	=249	=249	=249
4GG/	.	4G/	.	4d/ 4b-/	.	8d/L	.
.	.	.	.	.	.	8g/	.
4r	.	4r	.	4r	.	8b-/	.
.	.	.	.	.	.	8dd/J	.
2r	.	2r	.	2r	.	8gg\L	.
.	.	.	.	.	.	8bb-\	.
.	.	.	.	.	.	8ddd\	.
.	.	.	.	.	.	8ddd\J	.
=250	=250	=250	=250	=250	=250	=250	=250
.	.	.	.	.	.	dddq\	.
4E-\	.	4g\	.	4e-/ 4cc/	.	8ccc\L	.
.	.	.	.	.	.	8bbn\	<
4r	.	4r	.	4r	<	8ccc\	.
.	.	.	.	.	.	8ddd\J	.
2r	.	2r	.	2r	.	8eee-\L	.
.	.	.	.	.	.	8eeen\	.
.	.	.	.	.	.	8fff\	.
.	.	.	.	.	.	8fff#\J	.
=251	=251	=251	=251	=251	=251	=251	=251
4En\	.	4d-\	.	8b-\L	.	1ggg	.
.	.	.	.	8ff#\	.	.	.
4r	.	4r	.	8gg\	.	.	.
.	.	.	.	8aa\J	.	.	.
2r	.	2r	.	8bb-\L	.	.	.
.	.	.	.	8bbn\	.	.	.
.	.	.	.	8ccc\	.	.	.
.	.	.	.	8ddd-\J	.	.	.
=252	=252	=252	=252	=252	=252	=252	=252
4F\	.	8E-/L	.	[2ddd\	.	[2fff\	.
.	.	8B-/	.	.	.	.	.
4r	.	8d/	.	.	.	.	.
.	.	8f/J	.	.	.	.	.
2r	.	8b-\L	.	8ddd\L]	.	(8fff\L]	.
.	.	8dd\	.	8bb-\	.	8bbb-\	.
.	.	8ff\	.	8ddd\	.	8fff\	.
.	.	8ff\J	.	8bb-\J	.	8ddd\J)	.
=253	=253	=253	=253	=253	=253	=253	=253
8FF/L	.	1ee-	.	1aa	.	1ccc	.
8AA/	.	.	.	.	.	.	.
8C/	.	.	.	.	.	.	.
8F/J	.	.	.	.	.	.	.
8A\L	.	.	.	.	.	.	.
8c\	.	.	.	.	.	.	.
8f\	.	.	.	.	.	.	.
8f\J	.	.	.	.	.	.	.
=254	=254	=254	=254	=254	=254	=254	=254
4B-\	.	4dd\	.	4bb-\	.	8bb-\L	.
.	.	.	.	.	.	(8ff\	.
4r	.	4r	.	4r	.	8een\	.
.	.	.	.	.	.	8ff\J)	.
2r	.	4r	.	2r	.	8dd\L	.
.	.	.	.	.	.	8ff\	.
.	.	(ccq\	.	.	.	.	.
.	.	8b-\L	.	.	.	8dd\	.
.	.	16a\L	.	.	.	8ff\J	.
.	.	16b-\JJ)	.	.	.	.	.
=255	=255	=255	=255	=255	=255	=255	=255
1r	.	4cc\	.	1r	.	8ee-\L	.
.	.	.	.	.	.	8ff\	.
.	.	4f\	.	.	.	8ee-\	.
.	.	.	.	.	.	8ff\J	.
.	.	4cc\	.	.	.	8ee-\L	.
.	.	.	.	.	.	8ff\	.
.	.	4f\	.	.	.	8ee-\	.
.	.	.	.	.	.	8ff\J	.
=256	=256	=256	=256	=256	=256	=256	=256
1r	.	(2dd\	.	8b-/L	.	4dd\	.
.	.	.	.	(8f/	.	.	.
.	.	.	.	8en/	.	4r	.
.	.	.	.	8f/J)	.	.	.
.	.	4b-\)	.	8d/L	.	4r	.
.	.	.	.	8f/	.	.	.
.	.	.	.	.	.	(cccq\	.
.	.	4r	.	8d/	.	8bb-\L	.
.	.	.	.	8f/J	.	16aa\L	.
.	.	.	.	.	.	16bb-\JJ)	.
=257	=257	=257	=257	=257	=257	=257	=257
1r	.	2r	.	8e-/L	.	4ccc\	.
.	.	.	.	8f/	.	.	.
.	.	.	.	8e-/	.	4ff\	.
.	.	.	.	8f/J	.	.	.
.	.	4A/	.	8e-/L	.	4ccc\	.
.	.	.	.	8f/	.	.	.
.	.	4F/	.	8e-/	.	4ff\	.
.	.	.	.	8f/J	.	.	.
=258	=258	=258	=258	=258	=258	=258	=258
2r	.	2r	.	8d/L	.	(2ddd\	.
.	.	.	.	8f/	.	.	.
.	.	.	.	8d/	.	.	.
.	.	.	.	8f/J	.	.	.
4r	.	4B-/	.	8d/L	.	4bb-\)	.
.	.	.	.	8f/J	.	.	.
(Cq\	.	.	.	(e-q\	.	.	.
8BB-/L	.	8F/L	.	8d/L	.	(8dd\L	.
16AA/L	.	8F/J	.	16c/L	.	8b-\J)	.
16BB-/JJ)	.	.	.	16d/JJ)	.	.	.
=259	=259	=259	=259	=259	=259	=259	=259
4C/	.	4F/	.	4e-/	.	8a\L	.
.	.	.	.	.	.	8b-\	.
4FF/	.	4F/	.	4c/	.	8cc\	.
.	.	.	.	.	.	8dd\J	.
4C/	.	4F/	.	4e-/	.	8ee-\L	.
.	.	.	.	.	.	8ff\	.
4FF/	.	4F/	.	4c/	.	8gg\	.
.	.	.	.	.	.	8aa\J	.
=260	=260	=260	=260	=260	=260	=260	=260
(2D\	.	2F/	.	(2f/	.	8bb-\L	.
.	.	.	.	.	.	8ccc\	.
.	.	.	.	.	.	8ddd\	.
.	.	.	.	.	.	8eee-\J	.
4BB-/)	.	4F/	.	4d/)	.	4fff\	.
4BB-/	.	(8f\L	.	(8dd\L	.	4fff\	.
.	.	8d\J)	.	8b-\J)	.	.	.
=261	=261	=261	=261	=261	=261	=261	=261
4FF/	.	8c\L	.	8a\L	.	4fff\	.
.	.	8d\	.	8b-\	.	.	.
4F\	.	8e-\	.	8cc\	.	4fff\	.
.	.	8f\J	.	8dd\J	.	.	.
4FF/	.	8g\L	.	8ee-\L	.	4fff\	.
.	.	8a\	.	8ff\	.	.	.
4F\	.	8b-\	.	8gg\	.	4fff\	.
.	.	8cc\J	.	8aa\J	.	.	.
=262	=262	=262	=262	=262	=262	=262	=262
8BB-\L	.	8dd\L	.	8bb-\L	.	8fff\L	.
8B-\	.	8dd\	.	8ff\	.	8fff\	.
8B-\	.	8dd\	.	8ff\	.	8ggg\	.
8B-\J	.	8cc\J	.	8ee-\J	.	8aaa\J	.
8BB-\L	.	8b-\L	.	8dd\L	.	8bbb-\L	.
8B-\	.	8dd\	.	8ff\	.	8fff\	.
8B-\	.	8dd\	.	8ff\	.	8ggg\	.
8B-\J	.	8cc\J	.	8ee-\J	.	8aaa\J	.
=263	=263	=263	=263	=263	=263	=263	=263
8BB-\L	.	8b-\L	.	8dd\L	.	8bbb-\L	.
8B-\	.	8dd\	.	8ff\	.	8fff\	.
8B-\	.	8dd\	.	8ff\	.	8ggg\	.
8B-\J	.	8cc\J	.	8ee-\J	.	8aaa\J	.
8BB-\L	.	8b-\L	.	8dd\L	.	8bbb-\L	.
8B-\	.	8dd\	.	8ff\	.	8fff\	.
8B-\	.	8dd\	.	8ff\	.	8ggg\	.
8B-\J	.	8cc\J	.	8ee-\J	.	8aaa\J	.
=264	=264	=264	=264	=264	=264	=264	=264
4BB-/	.	4b-\	.	4dd\	.	4bbb-\	.
4r	.	4r	.	4r	.	4r	.
4F\	.	4f\	.	4f/ 4cc/	.	4f\ 4cc\ 4aa\	.
4r	.	4r	.	4r	.	4r	.
=265	=265	=265	=265	=265	=265	=265	=265
*>B1	*>B1	*>B1	*>B1	*>B1	*>B1	*>B1	*>B1
4BB-/	.	4B-/	.	4B-/ 4f/ 4dd/	.	4f\ 4dd\ 4bb-\	.
4r	.	4r	.	4r	.	4r	.
4r	.	4r	.	4r	.	4r	.
(Dq\	.	(dq\	.	(dq\	.	(dq\	.
8C/L	.	8c/L	.	8c/L	.	8c/L	.
16BBn/L	.	16Bn/L	.	16Bn/L	.	16Bn/L	.
16C/JJ	.	16c/JJ)	.	16c/JJ)	.	16c/JJ)	.
=266	=266	=266	=266	=266	=266	=266	=266
*>B2	*>B2	*>B2	*>B2	*>B2	*>B2	*>B2	*>B2
4BB-/	.	4B-/	.	4B-/ 4f/ 4dd/	.	4f\ 4dd\ 4bb-\	.
4r	.	4r	.	4r	.	4r	.
2r	.	2r	.	2r	.	2r	.
==	==	==	==	==	==	==	==
*-	*-	*-	*-	*-	*-	*-	*-
!!!ENC: Craig Stuart Sapp
!!!END: 2006/02/13/
